!!!!SEGMENT: pl-stab--10e--001-004_zebrowski-marcin-jozef--vespere-ex-d-magnificat.krn
!!!cenid: 18xx:3420
!!!COM: Żebrowski, Marcin Józef
!!!COM-rismID: pe30020322
!!!CDT: 1702-1770/06/29
!!!CNT: Polish
!!!OPR: Vespere ex D
!!!OTL: Magnificat
!!!OMV: 004
!!!PDT: 1801
!!!AGN: Sacred; Vespers
!!!YEC: Copyright 2022 Narodowy Instytut Fryderyka Chopina (https://polishscores.org)
!!!YEM: License CC-BY-4.0 (https://creativecommons.org/licenses/by/4.0)
!!!SMS-siglum: PL-STAb
!!!SMS-shelfmark: 10e
!!!SMS-shelfwork: 001-004 M
!!!SMS-variant:
!!!SMS-altvar:
!!!NIFC-rismSourceID: 301050566
!!!NIFC-rismChildID: 301050566
!!!NIFC-islandoraID: pl-stab:2368
!!!URL-pdf-islandora: https://repozytorium.nifc.pl/islandora/object/pl-stab%3A2368/datastream/PDF/view
!!!URL-scan: https://polish.musicsources.pl/pl/lokalizacje/galeria/rekopisy/4401 @EN{Scan on Polish Music Sources Website} @PL{Skany w portalu Dziedzictwo Muzyki Polskiej w otwartym dostępie}
!!!IIIF:
!!!ONB-nifc: UWAGA: części Vespere: 1. Dixit Dominus, 2. Detorente, 3. Gloria Patri (razem z Sicut erat), 4. Magnificat, 5. Gloria Patri (z Sicut erat i Amen)
!!!AIN: 1 bass 2 cor 1 organ 1 soprn 2 violn
!!!key: D
**kern	**fba	**kern	**kern	**kern	**text	**text	**kern	**text	**kern	**kern
*part7	*	*part6	*part5	*part4	*	*	*part3	*	*part2	*part1
*staff7	*	*staff6	*staff5	*staff4	*	*	*staff3	*	*staff2	*staff1
*IGcont	*	*	*	*IGcoro	*	*	*IGcoro	*	*	*
*ICklav	*	*ICstr	*ICstr	*ICvox	*	*	*ICvox	*	*ICbrass	*ICbrass
*Iorgan	*	*Ivioln	*Ivioln	*Ibass	*	*	*Isoprn	*	*Icor	*Icor
*I"Organo	*	*I"Violino Secundo	*I"Violino Primo	*I"Baſso	*	*	*I"Canto	*	*I"Cornu Secundo	*I"Cornu Primo in D.
*I'org	*	*I'vl 2	*I'vl 1	*I'B	*	*	*I'S	*	*I'cor 2 in D	*I'cor 1 in D
*clefF4	*	*clefG2	*clefG2	*clefF4	*	*	*clefC1	*	*clefG2	*clefG2
*	*	*	*	*	*	*	*	*	*ITrd6c10	*ITrd6c10
*k[f#c#]	*	*k[f#c#]	*k[f#c#]	*k[f#c#]	*	*	*k[c#f#]	*	*k[f#c#]	*k[f#c#]
*D:	*	*D:	*D:	*D:	*	*	*D:	*	*D:	*D:
*M4/4	*	*M4/4	*M4/4	*M4/4	*	*	*M4/4	*	*M4/4	*M4/4
*met(c)	*	*met(c)	*met(c)	*met(c)	*	*	*met(c)	*	*met(c)	*met(c)
*2\right	*	*2\right	*2\right	*2\right	*	*	*2\right	*	*2\right	*2\right
=1	=1	=1	=1	=1	=1	=1	=1	=1	=1	=1
!	!	!	!	!	!	!	!	!	!	!LO:TX:a:B:t=Allo:rj
!LO:TX:a:t=Tutti	!	!	!	!LO:TX:a:B:t=Allo:rj	!	!	!LO:TX:a:B:t=Allo:rj	!	!	!
!LO:TX:a:B:t=allo	!	!LO:TX:a:B:t=Allo:rj	!LO:TX:a:B:t=Allo:rj	!	!	!	!	!	!	!
8D/|L	.	16d\LL	2dd\	2d\	.	Ma-	2dd\	Ma-	2d\	2d\
.	.	16a\	.	.	.	.	.	.	.	.
8D/|	.	16ff#\	.	.	.	.	.	.	.	.
.	.	16a\JJ	.	.	.	.	.	.	.	.
8D/|	.	16d\LL	.	.	.	.	.	.	.	.
.	.	16a\	.	.	.	.	.	.	.	.
8D/|J	.	16ff#\	.	.	.	.	.	.	.	.
.	.	16a\JJ	.	.	.	.	.	.	.	.
*tremolo	*	*	*	*	*	*	*	*	*	*
8D/L	.	16d\LL	2a/	2A\	.	.	2a\	.	2A/	2A/
.	.	16a\	.	.	.	.	.	.	.	.
8D/	.	16ff#\	.	.	.	.	.	.	.	.
.	.	16a\JJ	.	.	.	.	.	.	.	.
8D/	.	16d\LL	.	.	.	.	.	.	.	.
.	.	16a\	.	.	.	.	.	.	.	.
8D/J	.	16ff#\	.	.	.	.	.	.	.	.
.	.	16a\JJ	.	.	.	.	.	.	.	.
=2	=2	=2	=2	=2	=2	=2	=2	=2	=2	=2
8D/L	.	16d\LL	(<32f#/LLL	4.F#\	.	gni-	4.f#/	gni-	2d\	2d\
.	.	.	32e/JJ)	.	.	.	.	.	.	.
!	!	!	!LO:N:vis=8	!	!	!	!	!	!	!
.	.	16a\	8.d/J	.	.	.	.	.	.	.
8D/	.	16ff#\	.	.	.	.	.	.	.	.
.	.	16a\JJ	.	.	.	.	.	.	.	.
8D/	.	16d\LL	8d/|L	.	.	.	.	.	.	.
.	.	16a\	.	.	.	.	.	.	.	.
8D/J	.	16ff#\	8d/|J	8E\	.	-fi-	8e/	-fi-	.	.
.	.	16a\JJ	.	.	.	.	.	.	.	.
8D/L	.	16d\LL	(32f#/LLL	2D\	.	-cat	2d/	-cat	2d\	2d\
.	.	.	32e/JJ)	.	.	.	.	.	.	.
!	!	!	!LO:N:vis=8	!	!	!	!	!	!	!
.	.	16a\	8.d/J	.	.	.	.	.	.	.
8D/	.	16ff#\	.	.	.	.	.	.	.	.
.	.	16a\JJ	.	.	.	.	.	.	.	.
8D/	.	16d\LL	8d/|L	.	.	.	.	.	.	.
.	.	16a\	.	.	.	.	.	.	.	.
8D/J	.	16ff#\	8d/|J	.	.	.	.	.	.	.
.	.	16a\JJ	.	.	.	.	.	.	.	.
=3	=3	=3	=3	=3	=3	=3	=3	=3	=3	=3
8C#/L	x x 6	16e/LL	2aa\	4.A\	.	a-	4.a\	a-	2A/	2a\
.	.	16cc#\	.	.	.	.	.	.	.	.
8C#/	.	16aa\	.	.	.	.	.	.	.	.
.	.	16cc#\JJ	.	.	.	.	.	.	.	.
8C#/	.	16e/LL	.	.	.	.	.	.	.	.
.	.	16cc#\	.	.	.	.	.	.	.	.
8C#/J	.	16aa\	.	8A\	.	-ni-	8a\	-ni-	.	.
.	.	16cc#\JJ	.	.	.	.	.	.	.	.
!	!	!	!	!	!	!	!	!	!LO:SIC:v:s=2e\	!
8C#/L	x x 6	16e/LL	2ee\	2E\	.	-ma	2ee\	-ma	2d\	2e\
.	.	16cc#\	.	.	.	.	.	.	.	.
8C#/	.	16aa\	.	.	.	.	.	.	.	.
.	.	16cc#\JJ	.	.	.	.	.	.	.	.
!	!	!LO:LB:g=original	!	!	!	!	!	!	!	!
8C#/	.	16e/LL	.	.	.	.	.	.	.	.
.	.	16cc#\	.	.	.	.	.	.	.	.
8C#/J	.	16aa\	.	.	.	.	.	.	.	.
.	.	16cc#\JJ	.	.	.	.	.	.	.	.
=4	=4	=4	=4	=4	=4	=4	=4	=4	=4	=4
!	!	!	!	!	!	!	!	!	!	!
8C#/L	x x 6	16e/LL	(32cc#\LLL	4.C#/	.	me-	4.cc#\	me-	2A/	2A/
.	.	.	32b\JJ)	.	.	.	.	.	.	.
!	!	!	!LO:N:vis=8	!	!	!	!	!	!	!
.	.	16cc#\	8.a/J	.	.	.	.	.	.	.
8C#/	.	16aa\	.	.	.	.	.	.	.	.
.	.	16cc#\JJ	.	.	.	.	.	.	.	.
8C#/	.	16e/LL	8a/L	.	.	.	.	.	.	.
.	.	16cc#\	.	.	.	.	.	.	.	.
8C#/J	.	16aa\	8a/J	8BB/	.	.	8b\	.	.	.
.	.	16cc#\JJ	.	.	.	.	.	.	.	.
*Xtremolo	*	*	*	*	*	*	*	*	*	*
8C#/L	x x 6	16e/LL	(32cc#\LLL	2AA/	.	-a	2a\	-a	2A/	2A/
.	.	.	32b\JJ)	.	.	.	.	.	.	.
!	!	!	!LO:N:vis=8	!	!	!	!	!	!	!
.	.	16cc#\	8.a/J	.	.	.	.	.	.	.
8E\|	.	16aa\	.	.	.	.	.	.	.	.
.	.	16cc#\JJ	.	.	.	.	.	.	.	.
8A\|	.	16e/LL	8a/L	.	.	.	.	.	.	.
.	.	16cc#\	.	.	.	.	.	.	.	.
8G\|J	.	16aa\	8a/J	.	.	.	.	.	.	.
.	.	16cc#\JJ	.	.	.	.	.	.	.	.
=5	=5	=5	=5	=5	=5	=5	=5	=5	=5	=5
*	*	*	*	*	*	*	*	*ij	*	*
8F#\L	x x 6	16d\LL	2ddd\	2d\	.	me-	2dd\	me-	2d\	2d\
.	.	16a\	.	.	.	.	.	.	.	.
8D\	.	16ff#\	.	.	.	.	.	.	.	.
.	.	16a\JJ	.	.	.	.	.	.	.	.
8D\	.	16d\LL	.	.	.	.	.	.	.	.
.	.	16a\	.	.	.	.	.	.	.	.
8D\J	.	16ff#\	.	.	.	.	.	.	.	.
.	.	16a\JJ	.	.	.	.	.	.	.	.
*tremolo	*	*	*	*	*	*	*	*	*	*
8D\L	.	16d\LL	2aa\	2A\	.	-a	2a\	-a	2A/	2A/
*	*	*	*	*	*	*	*	*Xij	*	*
.	.	16a\	.	.	.	.	.	.	.	.
8D\	.	16ff#\	.	.	.	.	.	.	.	.
.	.	16a\JJ	.	.	.	.	.	.	.	.
8D\	.	16d\LL	.	.	.	.	.	.	.	.
.	.	16a\	.	.	.	.	.	.	.	.
8D\J	.	16ff#\	.	.	.	.	.	.	.	.
.	.	16a\JJ	.	.	.	.	.	.	.	.
=6	=6	=6	=6	=6	=6	=6	=6	=6	=6	=6
!	!	!	!LO:LB:g=original	!	!	!	!	!	!	!
8D\L	.	16d\LL	(32ff#\LLL	4.F#\	.	Do-	4.f#/	Do-	1d/	1d/
.	.	.	32ee\JJ)	.	.	.	.	.	.	.
!	!	!	!LO:N:vis=8	!	!	!	!	!	!	!
.	.	16a\	8.dd\J	.	.	.	.	.	.	.
8D\	.	16ff#\	.	.	.	.	.	.	.	.
.	.	16a\JJ	.	.	.	.	.	.	.	.
8D\	.	16d\LL	8dd\L	.	.	.	.	.	.	.
.	.	16a\	.	.	.	.	.	.	.	.
8D\J	.	16ff#\	8dd\J	8E\	.	-mi-	8e/	-mi-	.	.
.	.	16a\JJ	.	.	.	.	.	.	.	.
8D\L	.	16d\LL	(32ff#\LLL	2D\	.	-nu(m)	2d/	-nu(m)	.	.
.	.	.	32ee\JJ)	.	.	.	.	.	.	.
!	!	!	!LO:N:vis=8	!	!	!	!	!	!	!
.	.	16a\	8.dd\J	.	.	.	.	.	.	.
8D\	.	16ff#\	.	.	.	.	.	.	.	.
.	.	16a\JJ	.	.	.	.	.	.	.	.
8D\	.	16d\LL	8dd\L	.	.	.	.	.	.	.
.	.	16a\	.	.	.	.	.	.	.	.
8D\J	.	16ff#\	8dd\J	.	.	.	.	.	.	.
.	.	16a\JJ	.	.	.	.	.	.	.	.
*Xtremolo	*	*	*	*	*	*	*	*	*	*
=7	=7	=7	=7	=7	=7	=7	=7	=7	=7	=7
!LO:LB:g=original	!	!	!	!LO:LB:g=original	!	!	!	!	!LO:SIC:v:s=1g\	!LO:LB:g=original
8GG/L	.	8G/ 8d/ 8b/	16bb\LL	4r	.	.	2b\	et	1f#	1b\
.	.	.	16dd\	.	.	.	.	.	.	.
8BB/	.	4B/ 4d/	16dd\	.	.	.	.	.	.	.
.	.	.	16dd\JJ	.	.	.	.	.	.	.
8GG/	.	.	16gg\LL	8G\	.	qui	.	.	.	.
.	.	.	16dd\	.	.	.	.	.	.	.
8BB/J	.	4B/ 4d/	16dd\	8G\	.	a	.	.	.	.
.	.	.	16dd\JJ	.	.	.	.	.	.	.
8GG/L	.	.	16b\LL	4G\	.	res-	4b\	e-	.	.
.	.	.	16dd\	.	.	.	.	.	.	.
8BB/	.	4B/ 4d/	16dd\	.	.	.	.	.	.	.
.	.	.	16dd\JJ	.	.	.	.	.	.	.
8GG/	.	.	16g/LL	8G\	.	-pe-	4b\	-xul-	.	.
.	.	.	16dd\	.	.	.	.	.	.	.
8BB/J	.	8B/ 8d/	16dd\	8G\	.	-xit	.	.	.	.
.	.	.	16dd\JJ	.	.	.	.	.	.	.
=8	=8	=8	=8	=8	=8	=8	=8	=8	=8	=8
!	!	!LO:LB:g=original	!	!	!	!	!LO:LB:g=original	!	!LO:SIC:v:s=1g\	!
8GG/L	.	8B/ 8d/	16ff#\LL	4G\	.	hu-	2gg\	-ta-	1f#	1b\
.	.	.	16dd\	.	.	.	.	.	.	.
8BB/	.	4B/ 4d/	16dd\	.	.	.	.	.	.	.
.	.	.	16dd\JJ	.	.	.	.	.	.	.
8GG/	.	.	16bb\LL	8G\	.	-mi-	.	.	.	.
.	.	.	16dd\	.	.	.	.	.	.	.
8BB/J	.	4B/ 4d/	16dd\	8G\	.	-li-	.	.	.	.
.	.	.	16dd\JJ	.	.	.	.	.	.	.
8GG/L	.	.	16ddd\LL	4G\	.	-ta-	2gg\	-vit	.	.
.	.	.	16dd\	.	.	.	.	.	.	.
8BB/	.	4B/ 4d/	16dd\	.	.	.	.	.	.	.
.	.	.	16dd\JJ	.	.	.	.	.	.	.
8GG/	.	.	16bb\LL	4G\	.	-tem	.	.	.	.
.	.	.	16dd\	.	.	.	.	.	.	.
8BB/J	.	8B/ 8d/	16dd\	.	.	.	.	.	.	.
.	.	.	16dd\JJ	.	.	.	.	.	.	.
=9	=9	=9	=9	=9	=9	=9	=9	=9	=9	=9
8D\L	.	8d/ 8a/ 8ff#/	16aa\LL	4d\	.	an-	4.a\	Spi-	1A/	1a/
.	.	.	16dd\	.	.	.	.	.	.	.
8F#\	.	4f#/ 4a/	16dd\	.	.	.	.	.	.	.
.	.	.	16dd\JJ	.	.	.	.	.	.	.
8D\	.	.	16ff#\LL	8d\	.	-cil-	.	.	.	.
.	.	.	16dd\	.	.	.	.	.	.	.
8F#\J	.	4f#/ 4a/	16dd\	8d\	.	-le	8a\	-ri-	.	.
.	.	.	16dd\JJ	.	.	.	.	.	.	.
8D\L	.	.	16a/LL	4d\	.	su-	2a\	-tus	.	.
.	.	.	16dd\	.	.	.	.	.	.	.
8F#\	.	4f#/ 4a/	16dd\	.	.	.	.	.	.	.
.	.	.	16dd\JJ	.	.	.	.	.	.	.
8D\	.	.	16f#\LL	4d\	.	-ae	.	.	.	.
.	.	.	16dd\	.	.	.	.	.	.	.
8F#\J	.	8f#/ 8a/	16dd\	.	.	.	.	.	.	.
.	.	.	16dd\JJ	.	.	.	.	.	.	.
=10	=10	=10	=10	=10	=10	=10	=10	=10	=10	=10
!	!	!	!	!	!	!	!	!	!LO:LB:g=original	!
8D\L	.	8f#/ 8a/	16ff#\LL	8d\	.	ec-	2ff#\	me-	4f#\	4a\
.	.	.	16dd\	.	.	.	.	.	.	.
8F#\	.	4f#/ 4a/	16dd\	8d\	.	-ce	.	.	.	.
.	.	.	16dd\JJ	.	.	.	.	.	.	.
8D\	.	.	16ddd\LL	8d\	.	e-	.	.	4f#\	4a\
.	.	.	16dd\	.	.	.	.	.	.	.
8F#\J	.	4f#/ 4a/	16dd\	8d\	.	-nim	.	.	.	.
.	.	.	16dd\JJ	.	.	.	.	.	.	.
!	!	!	!LO:LB:g=original	!	!	!	!	!	!	!
8D\L	.	.	16ddd\LL	4d\	.	ex	2ff#\	-us	4f#\	4a\
.	.	.	16dd\	.	.	.	.	.	.	.
8F#\	.	4f#/ 4a/	16dd\	.	.	.	.	.	.	.
.	.	.	16dd\JJ	.	.	.	.	.	.	.
8D\	.	.	16aa\LL	8d\	.	.	.	.	4f#\	4a\
.	.	.	16dd\	.	.	.	.	.	.	.
8F#\J	.	8f#/ 8a/	16dd\	8d\	.	hoc	.	.	.	.
.	.	.	16dd\JJ	.	.	.	.	.	.	.
=11	=11	=11	=11	=11	=11	=11	=11	=11	=11	=11
!	!	!	!	!	!	!	!	!	!LO:TX:a:t=2	!LO:TX:a:t=2
8AA/L	.	8A/ 8e/ 8a/	16gg\LL	4A\	.	Be-	4g/	in	0r	0r
.	.	.	16a\	.	.	.	.	.	.	.
8C#/	.	4cc#\ 4ee\	16a\	.	.	.	.	.	.	.
.	.	.	16a\JJ	.	.	.	.	.	.	.
8AA/	.	.	16ee\LL	8A\	.	-a-	8g/	De-	.	.
.	.	.	16a\	.	.	.	.	.	.	.
8C#/J	.	4cc#\ 4ee\	16a\	8A\	.	.	8g/	-o	.	.
.	.	.	16a\JJ	.	.	.	.	.	.	.
!	!	!	!	!LO:LB:g=original	!	!	!	!	!	!
8AA/L	.	.	16cc#\LL	4A\	.	-tam	4g/	ſa-	.	.
.	.	.	16a\	.	.	.	.	.	.	.
8C#/	.	4cc#\ 4ee\	16a\	.	.	.	.	.	.	.
.	.	.	16a\JJ	.	.	.	.	.	.	.
8AA/	.	.	16e/LL	4A\	.	me	4g/	-lu-	.	.
.	.	.	16a/	.	.	.	.	.	.	.
8C#/J	.	8cc#\ 8ee\	16a/	.	.	.	.	.	.	.
.	.	.	16a/JJ	.	.	.	.	.	.	.
=12	=12	=12	=12	=12	=12	=12	=12	=12	=12	=12
8AA/L	.	8cc#\ 8ee\	16cc#\LL	4A\	.	Om-	2ee\	-ta-	.	.
.	.	.	16a\	.	.	.	.	.	.	.
8C#/	.	4cc#\ 4ee\	16a\	.	.	.	.	.	.	.
.	.	.	16a\JJ	.	.	.	.	.	.	.
8AA/	.	.	16ee\LL	4A\	.	-nes	.	.	.	.
.	.	.	16a\	.	.	.	.	.	.	.
8C#/J	.	4cc#\ 4ee\	16a\	.	.	.	.	.	.	.
.	.	.	16a\JJ	.	.	.	.	.	.	.
8AA/L	.	.	16gg\LL	8A\	.	ge-	2e/	-ri	.	.
.	.	.	16a\	.	.	.	.	.	.	.
8C#/	.	4cc#\ 4ee\	16a\	8A\	.	-ne-	.	.	.	.
.	.	.	16a\JJ	.	.	.	.	.	.	.
8AA/	.	.	16ee\LL	8A\	.	-ra-	.	.	.	.
.	.	.	16a\	.	.	.	.	.	.	.
8C#/J	.	8cc#\ 8ee\	16a\	8A\	.	-ti-	.	.	.	.
.	.	.	16a\JJ	.	.	.	.	.	.	.
=13	=13	=13	=13	=13	=13	=13	=13	=13	=13	=13
!	!	!LO:TX:t=P:problem=mixed beam	!LO:TX:t=P:problem=mixed beam	!	!	!	!	!	!	!
4D\	.	16dd\LL	16dd\LL	4d\	.	-o-	32f#/LLL	me-	4d\	4d\
.	.	.	.	.	.	.	32e/JJ	.	.	.
!	!	!	!	!	!	!	!LO:N:vis=8	!	!	!
.	.	16dd\	16dd\	.	.	.	8.d/J	.	.	.
.	.	16d/	16d/	.	.	.	.	.	.	.
.	.	16d/JJ	16d/JJ	.	.	.	.	.	.	.
8d\|L	.	16dd\LL	16dd\LL	4D/	.	-nes	4d/	-o	4d\	4d\
.	.	16dd\	16dd\	.	.	.	.	.	.	.
8c#\|J	.	16cc#\	16cc#\	.	.	.	.	.	.	.
.	.	16cc#\JJ	16cc#\JJ	.	.	.	.	.	.	.
8d\|L	.	16dd\LL	16dd\LL	2r	.	.	2r	.	4d\	4d\
.	.	16dd\	16dd\	.	.	.	.	.	.	.
8c#\|	.	16cc#\	16cc#\	.	.	.	.	.	.	.
.	.	16cc#\JJ	16cc#\JJ	.	.	.	.	.	.	.
8B\|	.	16b\LL	16b\LL	.	.	.	.	.	4d\	4d\
.	.	16b\	16b\	.	.	.	.	.	.	.
8A#X\|J	.	16a#X/	16a#X\	.	.	.	.	.	.	.
.	.	16a#/JJ	16a#/JJ	.	.	.	.	.	.	.
=14	=14	=14	=14	=14	=14	=14	=14	=14	=14	=14
!LO:LB:g=original	!	!	!	!	!	!	!	!	!	!
!LO:TX:t=P:problem=mixed beam	!	!	!	!LO:TX:a:t=4	!	!	!LO:TX:a:t=4	!	!LO:TX:a:t=2	!LO:TX:a:t=2
8B\L	.	16b\LL	16b\LL	00r	.	.	00r	.	0r	0r
.	.	16b\	16b\	.	.	.	.	.	.	.
8BB/	.	16B/	16B/	.	.	.	.	.	.	.
.	.	16B/JJ	16B/JJ	.	.	.	.	.	.	.
8B\	.	16b\LL	16b\LL	.	.	.	.	.	.	.
.	.	16b\	16b\	.	.	.	.	.	.	.
8A#X\J	.	16a#X/	16a#X/	.	.	.	.	.	.	.
.	.	16a#/JJ	16a#/JJ	.	.	.	.	.	.	.
!	!	!LO:LB:g=original	!LO:LB:g=original	!	!	!	!	!	!	!
8B\L	.	16b\LL	16b\LL	.	.	.	.	.	.	.
.	.	16b\	16b\	.	.	.	.	.	.	.
!	!	!LO:SIC:v:s=16an/	!	!	!	!	!	!	!	!
8An\	.	16a#/	16an/	.	.	.	.	.	.	.
!	!	!LO:SIC:v:s=16an/JJ	!	!	!	!	!	!	!	!
.	.	16a#/JJ	16a/JJ	.	.	.	.	.	.	.
8G\	.	16g/LL	16g/LL	.	.	.	.	.	.	.
.	.	16g/	16g/	.	.	.	.	.	.	.
8F#\J	.	16f#/	16f#/	.	.	.	.	.	.	.
.	.	16f#/JJ	16f#/JJ	.	.	.	.	.	.	.
=15	=15	=15	=15	=15	=15	=15	=15	=15	=15	=15
!LO:TX:t=P:problem=mixed beam	!	!	!	!	!	!	!	!	!	!
8G\L	.	16g/LL	16g/LL	.	.	.	.	.	.	.
.	.	16g/	16g/	.	.	.	.	.	.	.
8GG/	.	16G/	16G/	.	.	.	.	.	.	.
.	.	16G/JJ	16G/JJ	.	.	.	.	.	.	.
8G\	.	16g/LL	16g/LL	.	.	.	.	.	.	.
.	.	16g/	16g/	.	.	.	.	.	.	.
8F#\J	.	16f#/	16f#/	.	.	.	.	.	.	.
.	.	16f#/JJ	16f#/JJ	.	.	.	.	.	.	.
8G\L	.	16g/LL	16g/LL	.	.	.	.	.	.	.
.	.	16g/	16g/	.	.	.	.	.	.	.
8F#\	.	16f#/	16f#/	.	.	.	.	.	.	.
.	.	16f#/JJ	16f#/JJ	.	.	.	.	.	.	.
8E\	.	16e/LL	16e/LL	.	.	.	.	.	.	.
.	.	16e/	16e/	.	.	.	.	.	.	.
8D#X\J	.	16d#X/	16d#X/	.	.	.	.	.	.	.
.	.	16d#/JJ	16d#/JJ	.	.	.	.	.	.	.
=16	=16	=16	=16	=16	=16	=16	=16	=16	=16	=16
!LO:TX:t=P:problem=mixed beam	!	!LO:TX:t=P:problem=mixed beam	!LO:TX:t=P:problem=mixed beam	!	!	!	!	!	!LO:TX:t=P:problem=brak taktu	!LO:TX:t=P:problem=brak taktu
8E\L	.	16e/LL	16e/LL	.	.	.	.	.	1ryy	1ryy
.	.	16e/	16e/	.	.	.	.	.	.	.
8EE/	.	16ee\	16ee\	.	.	.	.	.	.	.
.	.	16ee\JJ	16ee\JJ	.	.	.	.	.	.	.
8E\	.	16e/LL	16e/LL	.	.	.	.	.	.	.
.	.	16e/	16e/	.	.	.	.	.	.	.
8D#X\J	.	16d#X/	16d#X/	.	.	.	.	.	.	.
.	.	16d#/JJ	16d#/JJ	.	.	.	.	.	.	.
8E\L	.	16e/LL	16e/LL	.	.	.	.	.	.	.
.	.	16e/	16e/	.	.	.	.	.	.	.
!	!	!LO:SIC:v:s=16dn/	!	!	!	!	!	!	!	!
8Dn\	.	16d#/	16dn/	.	.	.	.	.	.	.
!	!	!LO:SIC:v:s=16dn/JJ	!	!	!	!	!	!	!	!
.	.	16d#/JJ	16d/JJ	.	.	.	.	.	.	.
8C#\	.	16c#/LL	16c#/LL	.	.	.	.	.	.	.
.	.	16c#/	16c#/	.	.	.	.	.	.	.
8BB\J	.	16B/	16B/	.	.	.	.	.	.	.
.	.	16B/JJ	16B/JJ	.	.	.	.	.	.	.
=17	=17	=17	=17	=17	=17	=17	=17	=17	=17	=17
8AA/L	.	4A/ 4e/ 4a/	4A/ 4e/ 4a/	.	.	.	.	.	4A/	4e\
8C#/	.	.	.	.	.	.	.	.	.	.
8AA/	.	4A/ 4e/ 4a/	4A/ 4e/ 4a/	.	.	.	.	.	4A/	4e\
8C#/J	.	.	.	.	.	.	.	.	.	.
8r	.	4A/ 4e/ 4a/	4A/ 4e/ 4a/	.	.	.	.	.	4A/	4e\
8AA/|L	.	.	.	.	.	.	.	.	.	.
8C#/|	.	4r	4r	.	.	.	.	.	4A/	4e\
8E\|J	.	.	.	.	.	.	.	.	.	.
=18	=18	=18	=18	=18	=18	=18	=18	=18	=18	=18
8A\L	.	16a/LL	2a/	4.A\	.	qui	4.a\	qui	4A/	4A/
.	.	16ee\	.	.	.	.	.	.	.	.
8A\	.	16cc#\	.	.	.	.	.	.	.	.
.	.	16ee\JJ	.	.	.	.	.	.	.	.
*	*	*rep	*	*	*	*	*	*	*	*
8A\	.	16a/LL	.	.	.	.	.	.	4A/	4A/
.	.	16ee\	.	.	.	.	.	.	.	.
8A\J	.	16cc#\	.	8A\	.	a	8a\	a	.	.
.	.	16ee\JJ	.	.	.	.	.	.	.	.
*	*	*Xrep	*	*	*	*	*	*	*	*
*tremolo	*	*rep	*	*	*	*	*	*	*	*
8A\L	.	16a/LL	2e/	4E\	.	fe-	4ee\	fe-	4A/	4A/
.	.	16ee\	.	.	.	.	.	.	.	.
8A\	.	16cc#\	.	.	.	.	.	.	.	.
.	.	16ee\JJ	.	.	.	.	.	.	.	.
*	*	*Xrep	*	*	*	*	*	*	*	*
*	*	*rep	*	*	*	*	*	*	*	*
8A\	.	16a/LL	.	4E\	.	-cit	4ee\	-cit	4A/	4A/
.	.	16ee\	.	.	.	.	.	.	.	.
8A\J	.	16cc#\	.	.	.	.	.	.	.	.
.	.	16ee\JJ	.	.	.	.	.	.	.	.
*	*	*Xrep	*	*	*	*	*	*	*	*
=19	=19	=19	=19	=19	=19	=19	=19	=19	=19	=19
*	*	*	*	*	*	*	*	*	*	*
!	!	!	!	!	!	!	!LO:LB:g=original	!	!LO:SIC:v:s=2e\	!
8A\L	.	16a/LL	(32c#/LLL	(32C#/LLL	.	mi-	(32cc#\LLL	mi-	2f#\	2a\
.	.	.	32B/JJ)	32BB/JJ)	.	.	32b\JJ)	.	.	.
!	!	!	!LO:N:vis=8	!	!	!	!	!	!	!
.	.	16ee\	8.A/J	8.AA/J	.	.	8.a\J	.	.	.
8A\	.	16cc#\	.	.	.	.	.	.	.	.
.	.	16ee\JJ	.	.	.	.	.	.	.	.
*	*	*	*	*	*	*	*	*	*	*
*	*	*rep	*	*	*	*	*	*	*	*
!	!	!	!	!LO:N:vis=2	!	!	!	!	!	!
8A\	.	16a/LL	8A/|L	2.AA/	.	-hi	2.a\	-hi	.	.
.	.	16ee\	.	.	.	.	.	.	.	.
8A\J	.	16cc#\	8A/|J	.	.	.	.	.	.	.
.	.	16ee\JJ	.	.	.	.	.	.	.	.
*	*	*Xrep	*	*	*	*	*	*	*	*
*	*	*rep	*	*	*	*	*	*	*	*
!	!	!	!LO:LB:g=original	!	!	!	!	!	!	!LO:SIC:v:s=2e\
8A\L	.	16a/LL	(32c#/LLL	.	.	.	.	.	2A/	2d\
.	.	.	32B/JJ)	.	.	.	.	.	.	.
!	!	!	!LO:N:vis=8	!	!	!	!	!	!	!
.	.	16ee\	8.A/J	.	.	.	.	.	.	.
8A\	.	16cc#\	.	.	.	.	.	.	.	.
.	.	16ee\JJ	.	.	.	.	.	.	.	.
*	*	*Xrep	*	*	*	*	*	*	*	*
*	*	*rep	*	*	*	*	*	*	*	*
8A\	.	16a/LL	8A/|L	.	.	.	.	.	.	.
.	.	16ee\	.	.	.	.	.	.	.	.
8A\J	.	16cc#\	8A/|J	.	.	.	.	.	.	.
.	.	16ee\JJ	.	.	.	.	.	.	.	.
*	*	*Xrep	*	*	*	*	*	*	*	*
=20	=20	=20	=20	=20	=20	=20	=20	=20	=20	=20
!	!	!LO:LB:g=original	!	!	!	!	!	!	!LO:SIC:v:s=4e\	!LO:SIC:v:s=4e\
8G#X\L	x x 6	16b\LL	2ee\	2e\	.	ma-	2ee\	ma-	4A/	4A/
.	.	16gg#X\	.	.	.	.	.	.	.	.
8G#\	.	16ee\	.	.	.	.	.	.	.	.
.	.	16gg#\JJ	.	.	.	.	.	.	.	.
*	*	*rep	*	*	*	*	*	*	*	*
!	!	!	!	!	!	!	!	!	!LO:SIC:v:s=4e\	!LO:SIC:v:s=4e\
8G#\	.	16b\LL	.	.	.	.	.	.	4A/	4A/
.	.	16gg#\	.	.	.	.	.	.	.	.
8G#\J	.	16ee\	.	.	.	.	.	.	.	.
.	.	16gg#\JJ	.	.	.	.	.	.	.	.
*	*	*Xrep	*	*	*	*	*	*	*	*
*	*	*rep	*	*	*	*	*	*	*	*
!	!	!	!	!	!	!	!	!	!LO:SIC:v:s=4e\	!LO:SIC:v:s=4e\
8G#\L	x x 6	16b\LL	2b\	4B\	.	.	4b\	-gna	4A/	4A/
.	.	16gg#\	.	.	.	.	.	.	.	.
8G#\	.	16ee\	.	.	.	.	.	.	.	.
.	.	16gg#\JJ	.	.	.	.	.	.	.	.
*	*	*Xrep	*	*	*	*	*	*	*	*
*	*	*rep	*	*	*	*	*	*	*	*
!	!	!	!	!	!	!	!	!	!LO:SIC:v:s=4e\	!LO:SIC:v:s=4e\
8G#\	.	16b\LL	.	4B\	.	-gna	4b\	qui	4A/	4A/
.	.	16gg#\	.	.	.	.	.	.	.	.
8G#\J	.	16ee\	.	.	.	.	.	.	.	.
.	.	16gg#\JJ	.	.	.	.	.	.	.	.
*	*	*Xrep	*	*	*	*	*	*	*	*
=21	=21	=21	=21	=21	=21	=21	=21	=21	=21	=21
*	*	*rep	*	*	*	*	*	*	*	*
!	!	!	!	!LO:LB:g=original	!	!	!	!	!	!LO:LB:g=original
8E\L	x x 3#r	16b\LL	(32g#X/LLL	4.G#X\	.	qui	4.g#X/	po-	2e\	2e\
.	.	.	32f#/JJ)	.	.	.	.	.	.	.
!	!	!	!LO:N:vis=8	!	!	!	!	!	!	!
.	.	16gg#X\	8.e/J	.	.	.	.	.	.	.
8E\	.	16ee\	.	.	.	.	.	.	.	.
.	.	16gg#\JJ	.	.	.	.	.	.	.	.
*	*	*Xrep	*	*	*	*	*	*	*	*
*	*	*rep	*	*	*	*	*	*	*	*
8E\	.	16b\LL	8e/|L	.	.	.	.	.	.	.
.	.	16gg#\	.	.	.	.	.	.	.	.
8E\J	.	16ee\	8e/|J	8F#\	.	po-	8f#/	-tens	.	.
.	.	16gg#\JJ	.	.	.	.	.	.	.	.
*Xtremolo	*	*Xrep	*	*	*	*	*	*	*	*
*	*	*rep	*	*	*	*	*	*	*	*
!LO:LB:g=original	!	!	!	!	!	!	!	!	!	!
8E\L	.	16b\LL	(32g#/LLL	2E\	.	-tens	2e/	est	2e\	2e\
.	.	.	32f#/JJ)	.	.	.	.	.	.	.
!	!	!	!LO:N:vis=8	!	!	!	!	!	!	!
.	.	16gg#\	8.e/J	.	.	.	.	.	.	.
8G#X\|J	.	16ee\	.	.	.	.	.	.	.	.
.	.	16gg#\JJ	.	.	.	.	.	.	.	.
*	*	*Xrep	*	*	*	*	*	*	*	*
*	*	*rep	*	*	*	*	*	*	*	*
8E\|L	.	16b\LL	8e/|L	.	.	.	.	.	.	.
.	.	16gg#\	.	.	.	.	.	.	.	.
8D\|J	.	16ee\	8e/|J	.	.	.	.	.	.	.
.	.	16gg#\JJ	.	.	.	.	.	.	.	.
*	*	*Xrep	*	*	*	*	*	*	*	*
=22	=22	=22	=22	=22	=22	=22	=22	=22	=22	=22
8C#/L	x x 6	16a/LL	2aa\	4A\	.	est	4a\	et	4A/	4e\
.	.	16ee\	.	.	.	.	.	.	.	.
8AA/	.	16cc#\	.	.	.	.	.	.	.	.
.	.	16ee\JJ	.	.	.	.	.	.	.	.
*	*	*rep	*	*	*	*	*	*	*	*
8AA/	.	16a/LL	.	8A\	.	San-	8a\	san-	4A/	4e\
.	.	16ee\	.	.	.	.	.	.	.	.
8AA/J	.	16cc#\	.	8A\	.	-ctu(m)	8a\	-ctu(m)	.	.
.	.	16ee\JJ	.	.	.	.	.	.	.	.
*tremolo	*	*Xrep	*	*	*	*	*	*	*	*
*	*	*rep	*	*	*	*	*	*	*	*
8AA/L	.	16a/LL	2ee\	4E\	[[ete-	no-	4ee\	no-	4A/	4e\
.	.	16ee\	.	.	.	.	.	.	.	.
8AA/	.	16cc#\	.	.	.	.	.	.	.	.
.	.	16ee\JJ	.	.	.	.	.	.	.	.
*	*	*Xrep	*	*	*	*	*	*	*	*
*	*	*rep	*	*	*	*	*	*	*	*
8AA/	.	16a/LL	.	4E\	-ri]]	-men	4ee\	-men	4A/	4e\
.	.	16ee\	.	.	.	.	.	.	.	.
8AA/J	.	16cc#\	.	.	.	.	.	.	.	.
.	.	16ee\JJ	.	.	.	.	.	.	.	.
*	*	*Xrep	*	*	*	*	*	*	*	*
=23	=23	=23	=23	=23	=23	=23	=23	=23	=23	=23
*	*	*rep	*	*	*	*	*	*	*	*
!	!	!	!	!	!	!	!	!	!LO:LB:g=original	!
8AA/L	.	16a/LL	(32cc#\LLL	4.C#/	.	e-	4.cc#\	e-	2e\	2a\
.	.	.	32b\JJ)	.	.	.	.	.	.	.
!	!	!	!LO:N:vis=8	!	!	!	!	!	!	!
.	.	16ee\	8.a/J	.	.	.	.	.	.	.
8AA/	.	16cc#\	.	.	.	.	.	.	.	.
.	.	16ee\JJ	.	.	.	.	.	.	.	.
*	*	*Xrep	*	*	*	*	*	*	*	*
*	*	*rep	*	*	*	*	*	*	*	*
8AA/	.	16a/LL	8a\L	.	.	.	.	.	.	.
.	.	16ee\	.	.	.	.	.	.	.	.
8AA/J	.	16cc#\	8a\J	8BB/	.	.	8b\	.	.	.
.	.	16ee\JJ	.	.	.	.	.	.	.	.
*Xtremolo	*	*Xrep	*	*	*	*	*	*	*	*
*	*	*rep	*	*	*	*	*	*	*	*
8AA/L	.	16a/LL	(32cc#\LLL	2AA/	.	-ius	2a\	-ius	2A/	2e\
.	.	.	32b\JJ)	.	.	.	.	.	.	.
!	!	!	!LO:N:vis=8	!	!	!	!	!	!	!
.	.	16ee\	8.a/J	.	.	.	.	.	.	.
8AA/	.	16cc#\	.	.	.	.	.	.	.	.
.	.	16ee\JJ	.	.	.	.	.	.	.	.
*	*	*Xrep	*	*	*	*	*	*	*	*
*	*	*rep	*	*	*	*	*	*	*	*
8AA/	.	16a/LL	8a\L	.	.	.	.	.	.	.
.	.	16ee\	.	.	.	.	.	.	.	.
8BB/J	.	16cc#\	8a\J	.	.	.	.	.	.	.
.	.	16ee\JJ	.	.	.	.	.	.	.	.
*	*	*Xrep	*	*	*	*	*	*	*	*
=24	=24	=24	=24	=24	=24	=24	=24	=24	=24	=24
*tremolo	*	*	*	*	*	*	*	*	*	*
8C#/L	x x 6	(32ee\LLL	4aa\	4r	.	.	8a\L	et	4A/	4A/
.	.	32dd\JJ	.	.	.	.	.	.	.	.
.	.	8.cc#\J)	.	.	.	.	.	.	.	.
8C#/	.	.	.	.	.	.	8a\J	mi-	.	.
8C#/	.	(32cc#\LLL	2a/	4C#/	.	fe-	8a\	-se-	4A/	4A/
.	.	32b\JJ	.	.	.	.	.	.	.	.
.	.	8.a/J)	.	.	.	.	.	.	.	.
8C#/J	.	.	.	.	.	.	8a\	-ri-	.	.
8C#/L	.	(32g\LLL	.	4C#/	.	-cit	4a\	-cor-	4A/	4A/
.	.	32a\JJ	.	.	.	.	.	.	.	.
.	.	8.b\J)	.	.	.	.	.	.	.	.
8C#/	.	.	.	.	.	.	.	.	.	.
!	!	!	!	!	!	!	!LO:LB:g=original	!	!	!
8C#/	.	(32cc#\LLL	4aa\	4C#/	.	po-	8a\	-di-	4A/	4A/
.	.	32dd\JJ	.	.	.	.	.	.	.	.
.	.	8.ee\J)	.	.	.	.	.	.	.	.
8C#/J	.	.	.	.	.	.	8a\	-a	.	.
=25	=25	=25	=25	=25	=25	=25	=25	=25	=25	=25
8D\L	.	4ff#\	(32aa\LLL	4.D/	.	-ten-	4a\	e-	2d\	2d\
.	.	.	32gg\JJ)	.	.	.	.	.	.	.
.	.	.	8.ff#\J	.	.	.	.	.	.	.
8D\	.	.	.	.	.	.	.	.	.	.
8D\	.	2f#/	(32ff#\LLL	.	.	.	4a\	-ius	.	.
.	.	.	32ee\JJ)	.	.	.	.	.	.	.
.	.	.	8.dd\J	.	.	.	.	.	.	.
8D\J	.	.	.	8D/	.	-ti-	.	.	.	.
!	!	!	!LO:LB:g=original	!	!	!	!	!	!	!
8D\L	.	.	(32dd\LLL	2D/	.	-am	4a\	in	2r	2r
.	.	.	32ee\JJ)	.	.	.	.	.	.	.
.	.	.	8.ff#\J	.	.	.	.	.	.	.
8D\	.	.	.	.	.	.	.	.	.	.
8D\	.	4ff#\	(32ff#\LLL	.	.	.	4a\	pro-	.	.
.	.	.	32gg\JJ)	.	.	.	.	.	.	.
.	.	.	8.aa\J	.	.	.	.	.	.	.
8D\J	.	.	.	.	.	.	.	.	.	.
=26	=26	=26	=26	=26	=26	=26	=26	=26	=26	=26
!	!	!LO:LB:g=original	!	!	!	!	!	!	!LO:TX:a:t=10	!LO:TX:a:t=10
8D#X\L	x x 6	(32ff#\LLL	4bb\	2D#X/	.	in	4b\	-ge-	00r	00r
.	.	32ee\JJ	.	.	.	.	.	.	.	.
.	.	8.dd#X\J)	.	.	.	.	.	.	.	.
8D#\	.	.	.	.	.	.	.	.	.	.
8D#\	.	(32dd#\LLL	2b\	.	.	.	8b\	-ni-	.	.
.	.	32cc#\JJ	.	.	.	.	.	.	.	.
.	.	8.b\J)	.	.	.	.	.	.	.	.
8D#\J	.	.	.	.	.	.	8b\	-e	.	.
8D#\L	.	(32b\LLL	.	4D#/	.	bra-	4b\	in	.	.
.	.	32cc#\JJ	.	.	.	.	.	.	.	.
!	!	!LO:N:vis=8	!	!	!	!	!	!	!	!
.	.	8.dd#\J)	.	.	.	.	.	.	.	.
8D#\	.	.	.	.	.	.	.	.	.	.
8D#\	.	(32dd#\LLL	4bb\	8D#/	.	-chi-	4b\	pro-	.	.
.	.	32ee\JJ	.	.	.	.	.	.	.	.
.	.	8.ff#\J)	.	.	.	.	.	.	.	.
8D#\J	.	.	.	8D#/	.	-o	.	.	.	.
=27	=27	=27	=27	=27	=27	=27	=27	=27	=27	=27
!	!	!	!	!LO:LB:g=original	!	!	!	!	!	!
8E\L	x x 3#r	4gg#X\	(32bb\LLL	2E\	.	ſu-	4.b\	-ge-	.	.
.	.	.	32aa\JJ)	.	.	.	.	.	.	.
.	.	.	8.gg#X\J	.	.	.	.	.	.	.
8E\	.	.	.	.	.	.	.	.	.	.
8E\	.	2g#X/	(32gg#\LLL	.	.	.	.	.	.	.
.	.	.	32ff#\JJ)	.	.	.	.	.	.	.
.	.	.	8.ee\J	.	.	.	.	.	.	.
8E\J	.	.	.	.	.	.	8b\	-ni-	.	.
!	!	!	!	!LO:TX:a:t=vi	!	!	!	!	!	!
8E\L	.	.	(32ee\LLL	2E\	.	-o	2b\	-ens	.	.
.	.	.	32ff#\JJ	.	.	.	.	.	.	.
.	.	.	8.gg#\J)	.	.	.	.	.	.	.
8E\	.	.	.	.	.	.	.	.	.	.
8E\	.	4gg#X\	(32gg#\LLL	.	.	.	.	.	.	.
.	.	.	32aa\JJ	.	.	.	.	.	.	.
.	.	.	8.bb\J)	.	.	.	.	.	.	.
8E\J	.	.	.	.	.	.	.	.	.	.
=28	=28	=28	=28	=28	=28	=28	=28	=28	=28	=28
!	!	!	!	!LO:TX:a:t=de	!	!	!	!	!	!
8E#X\L	x x 6	(32gg#X\LLL	4ccc#\	4E#X\	.	dis-	1cc#\	ti-	.	.
.	.	32ff#\JJ	.	.	.	.	.	.	.	.
.	.	8.ee#X\J)	.	.	.	.	.	.	.	.
8E#\	.	.	.	.	.	.	.	.	.	.
8E#\	.	(32ee#\LLL	2cc#\	4E#\	.	-per-	.	.	.	.
.	.	32dd#X\JJ	.	.	.	.	.	.	.	.
.	.	8.cc#\J)	.	.	.	.	.	.	.	.
8E#\J	.	.	.	.	.	.	.	.	.	.
8E#\L	.	(32cc#\LLL	.	4E#\	.	-sit	.	.	.	.
.	.	32dd#\JJ	.	.	.	.	.	.	.	.
.	.	8.ee#\J)	.	.	.	.	.	.	.	.
8E#\	.	.	.	.	.	.	.	.	.	.
8E#\	.	(32ee#\LLL	4ccc#\	4E#\	.	su-	.	.	.	.
.	.	32ff#\JJ	.	.	.	.	.	.	.	.
.	.	8.gg#\J)	.	.	.	.	.	.	.	.
8E#\J	.	.	.	.	.	.	.	.	.	.
=29	=29	=29	=29	=29	=29	=29	=29	=29	=29	=29
8F#\L	.	4aa\	(32ccc#\LLL	2F#\	.	-per-	4.cc#\	-men-	.	.
.	.	.	32bb\JJ	.	.	.	.	.	.	.
.	.	.	8.aa\J)	.	.	.	.	.	.	.
8F#\	.	.	.	.	.	.	.	.	.	.
8F#\	.	2a/	(32aa\LLL	.	.	.	.	.	.	.
.	.	.	32gg#X\JJ)	.	.	.	.	.	.	.
.	.	.	8.ff#\J	.	.	.	.	.	.	.
8F#\J	.	.	.	.	.	.	8a\	-ti-	.	.
8F#\L	.	.	(32ff#\LLL	2F#\	.	-bos	2cc#\	-bus	.	.
.	.	.	32gg#\JJ	.	.	.	.	.	.	.
!	!	!	!LO:N:vis=8	!	!	!	!	!	!	!
.	.	.	8.aa\J)	.	.	.	.	.	.	.
8F#\	.	.	.	.	.	.	.	.	.	.
8F#\	.	4aa\	(32aa\LLL	.	.	.	.	.	.	.
.	.	.	32bb\JJ	.	.	.	.	.	.	.
.	.	.	8.ccc#\J)	.	.	.	.	.	.	.
8F#\J	.	.	.	.	.	.	.	.	.	.
=30	=30	=30	=30	=30	=30	=30	=30	=30	=30	=30
!	!	!	!	!	!	!	!	!	!	!
8D\L	x 8 6	2bb\	2ddd\	4D/	.	men-	1ff#\	e-	00r	00r
8D\	.	.	.	.	.	.	.	.	.	.
8D\	.	.	.	4D/	.	-te	.	.	.	.
8D\J	.	.	.	.	.	.	.	.	.	.
8D#X\L	x 7 5	2aa\	2ccc#\	4D#X/	.	cor-	.	.	.	.
8D#\	.	.	.	.	.	.	.	.	.	.
8D#\	.	.	.	8D#/	.	-dis	.	.	.	.
8D#\J	.	.	.	8D#/	.	su-	.	.	.	.
*Xtremolo	*	*	*	*	*	*	*	*	*	*
=31	=31	=31	=31	=31	=31	=31	=31	=31	=31	=31
!LO:LB:g=original	!	!	!LO:LB:g=original	!	!	!	!	!	!	!
4E\	x 6 4	8aa\	8ccc#\	4E\	.	-i	4ee\	-um	.	.
.	x 5 3#r	4gg#X\	4bb\	.	.	.	.	.	.	.
4r	.	.	.	4r	.	.	4r	.	.	.
.	.	4ff#\	4aa\	.	.	.	.	.	.	.
4E\	x x 3#	.	.	2r	.	.	2r	.	.	.
.	.	4ee\	4gg#X\	.	.	.	.	.	.	.
4r	.	.	.	.	.	.	.	.	.	.
.	.	8dd\	8ff#X\	.	.	.	.	.	.	.
=32	=32	=32	=32	=32	=32	=32	=32	=32	=32	=32
!	!	!LO:LB:g=original	!	!	!	!	!LO:LB:g=original	!	!	!
!	!	!	!	!	!	!	!LO:TX:a:t=1	!	!	!
4E\	x 7 3#r	8dd\	8ff#\	1r	.	.	1r	.	.	.
.	.	4cc#\	4ee\	.	.	.	.	.	.	.
4r	.	.	.	.	.	.	.	.	.	.
.	.	4b\	4dd\	.	.	.	.	.	.	.
4E\	x 7 3#	.	.	.	.	.	.	.	.	.
.	.	4a\	4cc#\	.	.	.	.	.	.	.
4r	.	.	.	.	.	.	.	.	.	.
.	.	8g#X\	8b\	.	.	.	.	.	.	.
=33	=33	=33	=33	=33	=33	=33	=33	=33	=33	=33
8A\L	.	16a/LL	4cc#\	4A\	.	e-	4cc#\	De-	.	.
.	.	16e/	.	.	.	.	.	.	.	.
8E\	.	16e/	.	.	.	.	.	.	.	.
.	.	16e/JJ	.	.	.	.	.	.	.	.
!	!	!	!LO:N:vis=8	!	!	!	!	!	!	!
8B\	x x 6\	16e/LL	(8.gg#X\L	8B\	.	-ſu-	8dd\	-po-	.	.
.	.	16e/	.	.	.	.	.	.	.	.
8E\J	.	16e/	.	8B\	.	-ri-	8dd\	-su-	.	.
.	.	16e/JJ	32ff#\LL	.	.	.	.	.	.	.
.	.	.	32gg#\JJJ)	.	.	.	.	.	.	.
*	*	*tremolo	*	*	*	*	*	*	*	*
8c#\L	x x 6	16e/LL	4aa\	4c#\	.	-en-	4ee\	-it	.	.
.	.	16e/	.	.	.	.	.	.	.	.
8E\	.	16e/	.	.	.	.	.	.	.	.
.	.	16e/	.	.	.	.	.	.	.	.
!	!	!	!LO:N:vis=8	!	!	!	!	!	!	!
8G#X\	x 6 5	16e/	(8.dd\L	4B\	.	-tes	4dd\	po-	.	.
.	.	16e/	.	.	.	.	.	.	.	.
8E\J	.	16e/	.	.	.	.	.	.	.	.
.	.	16e/JJ	32cc#\LL	.	.	.	.	.	.	.
!	!	!	!LO:N:vis=32.	!	!	!	!	!	!	!
.	.	.	32dd\JJJ)	.	.	.	.	.	.	.
=34	=34	=34	=34	=34	=34	=34	=34	=34	=34	=34
8A\L	.	16e/LL	(32cc#\LLL	4A\	.	im-	4cc#\	-ten-	0r	0r
.	.	.	32b\JJ	.	.	.	.	.	.	.
.	.	16e/	8.a/J)	.	.	.	.	.	.	.
8E\	.	16e/	.	.	.	.	.	.	.	.
.	.	16e/	.	.	.	.	.	.	.	.
!	!	!	!LO:N:vis=8	!	!	!	!	!	!	!
8B\	x x 6\	16e/	(8.gg#X\L	8B\	.	-ple-	8dd\	-tes	.	.
.	.	16e/	.	.	.	.	.	.	.	.
8E\J	.	16e/	.	8B\	.	-vit	8dd\	de	.	.
.	.	16e/JJ	32ff#\LL	.	.	.	.	.	.	.
.	.	.	32gg#\JJJ)	.	.	.	.	.	.	.
*	*	*Xtremolo	*	*	*	*	*	*	*	*
8c#\L	x x 6	16ee\LL	4aa\	8c#\L	.	bo-	4ee\	se-	.	.
.	.	16ee\	.	.	.	.	.	.	.	.
8A\	.	16cc#\	.	8A\	.	.	.	.	.	.
.	.	16cc#\JJ	.	.	.	.	.	.	.	.
!	!	!	!LO:N:vis=8	!	!	!	!	!	!	!
8F#\	x x 6	16a/LL	(8.dd\L	8F#\	.	-nis	8ff#\	-det	.	.
.	.	16a/	.	.	.	.	.	.	.	.
8D\J	.	16f#/	.	8D\J	.	.	8ff#\	et	.	.
.	.	16f#/JJ	32cc#\LL	.	.	.	.	.	.	.
.	.	.	32dd\JJJ)	.	.	.	.	.	.	.
=35	=35	=35	=35	=35	=35	=35	=35	=35	=35	=35
!LO:TX:t=P:problem=zbędny takt cor 1 i cor 2	!	!LO:TX:t=P:problem=zbędny takt cor 1 i cor 2	!LO:TX:t=P:problem=zbędny takt cor 1 i cor 2	!LO:TX:t=P:problem=zbędny takt cor 1 i cor 2	!	!	!LO:TX:t=P:problem=zbędny takt cor 1 i cor 2	!	!LO:TX:t=P:problem=zbędny takt	!LO:TX:t=P:problem=zbędny takt
1ryy	.	1ryy	1ryy	1ryy	.	.	1ryy	.	.	.
=36	=36	=36	=36	=36	=36	=36	=36	=36	=36	=36
8E\L	x 6 4	(8.a\L	(8.cc#\L	4.E\	.	et	(8.cc#\L	ex-	4A/	4a\
8E\	.	.	.	.	.	.	.	.	.	.
.	.	16b\Jk)	16dd\Jk)	.	.	.	16dd\Jk)	.	.	.
8E\	.	(8.cc#\L	(8.ee\L	.	.	.	(8.ee\L	.	4A/	4a\
8E\J	.	.	.	8E\	.	di-	.	.	.	.
.	.	16b\Jk)	16dd\Jk)	.	.	.	16dd\Jk)	.	.	.
*tremolo	*	*	*	*	*	*	*	*	*	*
8E\L	x 6 4	(8.cc#\L	(8.ee\L	4E\	.	-mi-	(8.ee\L	.	4A/	4a\
8E\	.	.	.	.	.	.	.	.	.	.
.	.	16ee\Jk)	16cc#\Jk)	.	.	.	16cc#\Jk)	.	.	.
!	!	!	!	!LO:TX:a:t=re	!	!	!	!	!	!
8E\	.	(8.dd\L	(8.b\L	4E\	.	-tes	(8.b\L	-al-	4A/	4a\
8E\J	.	.	.	.	.	.	.	.	.	.
.	.	16cc#\Jk)	16a\Jk)	.	.	.	16a\Jk)	.	.	.
=37	=37	=37	=37	=37	=37	=37	=37	=37	=37	=37
!	!	!	!LO:LB:g=original	!LO:TX:a:t=tro	!	!	!	!	!	!
8EE/L	x 7 3#r	(8.g#X/L	(8.b\L	4E\	[[di-	di-	(8.b\L	-ta-	4e\	4e\
8EE/	.	.	.	.	.	.	.	.	.	.
.	.	16a/Jk)	16cc#\Jk)	.	.	.	16cc#\Jk)	.	.	.
8EE/	.	(8.b\L	(8.dd\L	8E\	-sper-	-mis	(8.dd\L	-vit	4e\	4e\
8EE/J	.	.	.	8E\	-sit]]	in-	.	.	.	.
.	.	16a/Jk)	16cc#\Jk)	.	.	.	16cc#\Jk)	.	.	.
8EE/L	x 7 3#r	(8.b/L	(8.dd\L	2E\	.	-na-	(8.dd\L	hu-	4e\	4e\
8EE/	.	.	.	.	.	.	.	.	.	.
.	.	16dd/Jk)	16b\Jk)	.	.	.	16b\Jk)	.	.	.
8EE/	.	(8.cc#\L	(8a/L	.	.	.	(8.a\L	-mi-	4e\	4e\
!	!	!	!LO:SIC:v:s=8g#/J0	!	!	!	!	!	!	!
8EE/J	.	.	8g/J)	.	.	.	.	.	.	.
.	.	16b\Jk)	.	.	.	.	16g#X\Jk)	.	.	.
*Xtremolo	*	*	*	*	*	*	*	*	*	*
=38	=38	=38	=38	=38	=38	=38	=38	=38	=38	=38
!	!	!	!	!	!	!	!LO:PB:g=original	!	!LO:TX:a:t=8	!LO:TX:a:t=8
4AA/	x x 6	8cc#\L	8a/L	4AA/	.	-nes	4a\	-les	00r	00r
.	.	(16cc#\L	(16aa\L	.	.	.	.	.	.	.
.	.	16b\JJ)	16gg#X\JJ)	.	.	.	.	.	.	.
!	!	!LO:LB:g=original	!	!	!	!	!	!	!	!
4AA/	.	(16cc#\LL	(16aa\LL	4r	.	.	4r	.	.	.
.	.	16b\)	16gg#\)	.	.	.	.	.	.	.
.	.	(16cc#\	(16aa\	.	.	.	.	.	.	.
.	.	16b\JJ)	16gg#\JJ)	.	.	.	.	.	.	.
.	.	.	8qqgg#/	.	.	.	.	.	.	.
4AA/	.	4cc#\	4aa\	2r	.	.	2r	.	.	.
4C#/	.	4e/	(8.a\L	.	.	.	.	.	.	.
.	.	.	16cc#\Jk)	.	.	.	.	.	.	.
=39	=39	=39	=39	=39	=39	=39	=39	=39	=39	=39
!LO:LB:g=original	!	!	!	!LO:TX:a:t=8	!	!	!LO:TX:a:t=8	!	!	!
4D/|	6 4\ 3	4f#/	(8.b\L	00r	.	.	00r	.	.	.
.	.	.	16g#X/Jk)	.	.	.	.	.	.	.
4C#/|	x x 6	4e/	(8.a\L	.	.	.	.	.	.	.
.	.	.	16cc#\Jk)	.	.	.	.	.	.	.
4D/|	6 4\ 3	4f#/	(8.b\L	.	.	.	.	.	.	.
.	.	.	16g#/Jk)	.	.	.	.	.	.	.
4C#/|	x x 6	4e/	(8.a\L	.	.	.	.	.	.	.
.	.	.	16cc#\Jk)	.	.	.	.	.	.	.
=40	=40	=40	=40	=40	=40	=40	=40	=40	=40	=40
4D/	6 4\ 3	4f#/	(8.b\L	.	.	.	.	.	.	.
.	.	.	16g#X/Jk)	.	.	.	.	.	.	.
4C#/	x x 6	4e/	(8.a\L	.	.	.	.	.	.	.
.	.	.	16ee\Jk)	.	.	.	.	.	.	.
.	.	.	8qqee/	.	.	.	.	.	.	.
4BB/	x x 7	4f#/	2dd\	.	.	.	.	.	.	.
4E\	x 7 3#r	4g#X/	.	.	.	.	.	.	.	.
=41	=41	=41	=41	=41	=41	=41	=41	=41	=41	=41
!	!	!LO:TUP:a:problem=klamra łukowa	!LO:TUP:a:problem=klamra łukowa	!	!	!	!	!	!	!
4A\	.	12a/L	12cc#\L	.	.	.	.	.	.	.
.	.	12b\	12dd\	.	.	.	.	.	.	.
.	.	12cc#\J	12ee\J	.	.	.	.	.	.	.
*	*	*Xtuplet	*	*	*	*	*	*	*	*
!	!	!	!LO:TUP:a:problem=klamra łukowa	!	!	!	!	!	!	!
4D\	.	12dd\|L	12ff#\L	.	.	.	.	.	.	.
.	.	12ee\|	12gg#X\	.	.	.	.	.	.	.
.	.	12ff#\|J	12aa\J	.	.	.	.	.	.	.
*	*	*	*Xtuplet	*	*	*	*	*	*	*
!	!	!	!LO:LB:g=original	!	!	!	!	!	!	!
4E\	x x 3#r	12ee\|L	12gg#X\|L	.	.	.	.	.	.	.
.	.	12dd\|	12ff#\|	.	.	.	.	.	.	.
.	.	12cc#\|J	12ee\|J	.	.	.	.	.	.	.
4EE/	x x 7	12b\L	12dd\|L	.	.	.	.	.	.	.
.	.	12a/	12cc#\|	.	.	.	.	.	.	.
.	.	12g#X/J	12b\|J	.	.	.	.	.	.	.
=42	=42	=42	=42	=42	=42	=42	=42	=42	=42	=42
!	!	!	!LO:LB:g=original	!	!	!	!	!	!	!
4AA/|	.	16a/LL	(16cc#\LL	.	.	.	.	.	00r	00r
.	.	16g#/	16b\	.	.	.	.	.	.	.
.	.	16a/	16cc#	.	.	.	.	.	.	.
.	.	16b/JJ	16ddJJ)	.	.	.	.	.	.	.
4A\|	.	8cc#/L	(8.ee\L	.	.	.	.	.	.	.
.	.	8dd/J	.	.	.	.	.	.	.	.
.	.	.	16ee\)J	.	.	.	.	.	.	.
.	.	.	8qqdd#/	.	.	.	.	.	.	.
4AA/|	.	4b/	4ee\	.	.	.	.	.	.	.
4C#/	x x 6	4g/	(8.a\L	.	.	.	.	.	.	.
.	.	.	16cc#J)	.	.	.	.	.	.	.
=43	=43	=43	=43	=43	=43	=43	=43	=43	=43	=43
!	!	!	!	!	!	!	!	!	!	!
4D/	6 4\ 3	4f#/	(8.bL/	00r	.	.	00r	.	.	.
.	.	.	16g#J)/	.	.	.	.	.	.	.
4C#/	x x 6	4e/	(8.aL\	.	.	.	.	.	.	.
.	.	.	16cc#)J\	.	.	.	.	.	.	.
4D/	6 4\ 3	4f#/	(8.cc#L/	.	.	.	.	.	.	.
.	.	.	16g#J)/	.	.	.	.	.	.	.
4C#/	x x 6	4e/	(8.a\L	.	.	.	.	.	.	.
.	.	.	16cc#)\J	.	.	.	.	.	.	.
=44	=44	=44	=44	=44	=44	=44	=44	=44	=44	=44
4D/	6 4\ 3	4f#/	(8.b/L	.	.	.	.	.	.	.
.	.	.	16g#/J)	.	.	.	.	.	.	.
4C#/	x x 6	4e/	(8.cc#\L	.	.	.	.	.	.	.
.	.	.	16ee\J)	.	.	.	.	.	.	.
.	.	.	8qqee/	.	.	.	.	.	.	.
4BB/	x x 7	4f#/	2dd\	.	.	.	.	.	.	.
4E\	x 7 3#r	4g#/	.	.	.	.	.	.	.	.
=45	=45	=45	=45	=45	=45	=45	=45	=45	=45	=45
*	*	*tuplet	*tuplet	*	*	*	*	*	*	*
!	!	!LO:TUP:a:problem=klamra łukowa	!LO:TUP:a:problem=klamra łukowa	!	!	!	!	!	!	!
4A\	.	12a\LL	12cc#\LL	.	.	.	.	.	.	.
.	.	12b\	12dd\	.	.	.	.	.	.	.
.	.	12cc#\JJ	12eeJJ	.	.	.	.	.	.	.
*	*	*Xtuplet	*Xtuplet	*	*	*	*	*	*	*
4D\	.	12dd\LL|	12ff#LL\|	.	.	.	.	.	.	.
.	.	12ee\|	12gg#X\|	.	.	.	.	.	.	.
.	.	12ff#\JJ|	12aa\JJ|	.	.	.	.	.	.	.
4E\	x x 3#r	12ee\LL|	12gg#\LL|	.	.	.	.	.	.	.
.	.	12dd\|	12ff#\|	.	.	.	.	.	.	.
.	.	12cc#\JJ|	12ee\JJ|	.	.	.	.	.	.	.
4EE/	x x 7	12b/LL	12dd\LL|	.	.	.	.	.	.	.
.	.	12a/	12cc#\|	.	.	.	.	.	.	.
.	.	12g#/JJ	12b\JJ|	.	.	.	.	.	.	.
=46	=46	=46	=46	=46	=46	=46	=46	=46	=46	=46
!LO:TX:t=P:problem=mixed beam	!	!	!LO:LB:g=original	!	!	!	!	!	!	!LO:PB:g=original
8AA/L	.	4a/	4a/	.	.	.	.	.	4A/	4A/
8A\	.	.	.	.	.	.	.	.	.	.
8AA/	.	4A/ 4e 4a	4a\ 4ccc#\	.	.	.	.	.	4A/	4A/
8A\J	.	.	.	.	.	.	.	.	.	.
8AA/L	.	4A/ 4e 4a	4a\ 4ccc#	.	.	.	.	.	4A/	4A/
8Gn\|	.	.	.	.	.	.	.	.	.	.
8E\|	.	4r	4r	.	.	.	.	.	4r	4r
8C#\|J	.	.	.	.	.	.	.	.	.	.
=47	=47	=47	=47	=47	=47	=47	=47	=47	=47	=47
!LO:LB:g=original	!	!	!	!	!	!	!	!	!	!
8D/L	.	16d\LL	2ddd\	2d\	.	Su-	2dd\	Su-	2d\	2d\
.	.	16a\	.	.	.	.	.	.	.	.
8D/	.	16ff#\	.	.	.	.	.	.	.	.
.	.	16a\JJ	.	.	.	.	.	.	.	.
*	*	*rep	*	*	*	*	*	*	*	*
8D/	.	16d\LL	.	.	.	.	.	.	.	.
.	.	16a\	.	.	.	.	.	.	.	.
8D/J	.	16ff#\	.	.	.	.	.	.	.	.
.	.	16a\JJ	.	.	.	.	.	.	.	.
*tremolo	*	*Xrep	*	*	*	*	*	*	*	*
*	*	*rep	*	*	*	*	*	*	*	*
8D/L	.	16d\LL	2aa\	4A\	.	-sce-	4a\	-sce-	2A/	2A/
.	.	16a\	.	.	.	.	.	.	.	.
8D/	.	16ff#\	.	.	.	.	.	.	.	.
.	.	16a\JJ	.	.	.	.	.	.	.	.
*	*	*Xrep	*	*	*	*	*	*	*	*
*	*	*rep	*	*	*	*	*	*	*	*
8D/	.	16d\LL	.	4A\	.	-pit	4a\	-pit	.	.
.	.	16a\	.	.	.	.	.	.	.	.
8D/J	.	16ff#\	.	.	.	.	.	.	.	.
.	.	16a\JJ	.	.	.	.	.	.	.	.
*	*	*Xrep	*	*	*	*	*	*	*	*
=48	=48	=48	=48	=48	=48	=48	=48	=48	=48	=48
*	*	*rep	*	*	*	*	*	*	*	*
8D/L	.	16d\LL	(32ff#\LLL	4.F#\	.	Is-	4.a/	I-	4d\	4d\
.	.	.	32ee\JJ)	.	.	.	.	.	.	.
.	.	16a\	8.dd\J	.	.	.	.	.	.	.
8D/	.	16ff#\	.	.	.	.	.	.	.	.
.	.	16a\JJ	.	.	.	.	.	.	.	.
*	*	*Xrep	*	*	*	*	*	*	*	*
*	*	*rep	*	*	*	*	*	*	*	*
8D/	.	16d\LL	8dd\L	.	.	.	.	.	4d\	4d\
.	.	16a\	.	.	.	.	.	.	.	.
8D/J	.	16ff#\	8dd\J	8E\	.	-rael	8g/	-sra-	.	.
.	.	16a\JJ	.	.	.	.	.	.	.	.
*	*	*Xrep	*	*	*	*	*	*	*	*
*	*	*rep	*	*	*	*	*	*	*	*
8D/L	.	16d\LL	(32ff#\LLL	2D\	.	pu-	2f#/	-el	4d\	4d\
.	.	.	32ee\JJ)	.	.	.	.	.	.	.
!	!	!	!LO:N:vis=8	!	!	!	!	!	!	!
.	.	16a\	8.dd\J	.	.	.	.	.	.	.
8D/	.	16ff#\	.	.	.	.	.	.	.	.
.	.	16a\JJ	.	.	.	.	.	.	.	.
*	*	*Xrep	*	*	*	*	*	*	*	*
*	*	*rep	*	*	*	*	*	*	*	*
8D/	.	16d\LL	8dd\L	.	.	.	.	.	4d\	4d\
.	.	16a\	.	.	.	.	.	.	.	.
8D/J	.	16ff#\	8dd\J	.	.	.	.	.	.	.
.	.	16a\JJ	.	.	.	.	.	.	.	.
*Xtremolo	*	*Xrep	*	*	*	*	*	*	*	*
=49	=49	=49	=49	=49	=49	=49	=49	=49	=49	=49
*	*	*tremolo	*	*	*	*	*	*	*	*
!	!	!	!	!	!	!	!	!	!LO:PB:g=original	!
8F#\L	x x 6	16dd\LL	16aa\LL	4G\	.	-e-	4a\	pu-	4d\	4f#\
.	.	16dd\	16dd\	.	.	.	.	.	.	.
8D\	.	16dd\	16dd\	.	.	.	.	.	.	.
.	.	16dd\	16dd\JJ	.	.	.	.	.	.	.
8A\	x x 6 3nr	16dd\	16cccn\LL	4A\	.	-rum	4f#\	-e-	4d\	4f#\
.	.	16dd\	16dd\	.	.	.	.	.	.	.
8D\J	.	16dd\	16dd\	.	.	.	.	.	.	.
.	.	16dd\JJ	16dd\JJ	.	.	.	.	.	.	.
8G\L	x x 5	16dd\LL	16bb\LL	4G\	.	su-	4g\	-rum	4d\	4f#\
.	.	16dd\	16dd\	.	.	.	.	.	.	.
8D\	.	16dd\	16dd\	.	.	.	.	.	.	.
.	.	16dd\	16dd\JJ	.	.	.	.	.	.	.
8F#\	x x 6	16dd\	16aa\LL	4F#\	.	.	4a\	su-	4d\	4f#\
.	.	16dd\	16dd\	.	.	.	.	.	.	.
8D\J	.	16dd\	16dd\	.	.	.	.	.	.	.
.	.	16dd\JJ	16dd\JJ	.	.	.	.	.	.	.
*	*	*Xtremolo	*	*	*	*	*	*	*	*
=50	=50	=50	=50	=50	=50	=50	=50	=50	=50	=50
!LO:TX:t=P:problem=mixed beam	!	!	!LO:TX:t=P:problem=mixed beam	!	!	!	!	!	!	!
8G\L	.	8dd\L	8bb\L	4G\	.	-um	4b\	-um	2d\	1g\
8GG/|	.	16g\L	16g/L	.	.	.	.	.	.	.
.	.	16g\JJ	16g/JJ	.	.	.	.	.	.	.
8BB/|	.	16d/LL	16d/LL	4r	.	.	4r	.	.	.
.	.	16d/	16d/	.	.	.	.	.	.	.
8D\|J	.	16B/	16B/	.	.	.	.	.	.	.
.	.	16B/JJ	16B/JJ	.	.	.	.	.	.	.
!	!	!LO:LB:g=original	!	!	!	!	!	!	!	!
8G\L	.	4G/ 4d/ 4b/ 4gg/	4G/ 4d/ 4b/ 4gg/	2r	.	.	2r	.	2r	.
8G\J	.	.	.	.	.	.	.	.	.	.
4Fn\	x 4 2/	4r	4r	.	.	.	.	.	.	.
=51	=51	=51	=51	=51	=51	=51	=51	=51	=51	=51
!	!	!	!	!LO:LB:g=original	!	!	!	!	!LO:SIC:v:s=2e\	!LO:SIC:v:s=2e\
8E\L	x x 3#r	16e/LL	2eee\	2e\	.	re-	2ee\	re-	2d\	2d\
.	.	16b\	.	.	.	.	.	.	.	.
8E\	.	16gg#X\	.	.	.	.	.	.	.	.
.	.	16b\JJ	.	.	.	.	.	.	.	.
*	*	*rep	*	*	*	*	*	*	*	*
8E\	.	16e/LL	.	.	.	.	.	.	.	.
.	.	16b\	.	.	.	.	.	.	.	.
8E\J	.	16gg#\	.	.	.	.	.	.	.	.
.	.	16b\JJ	.	.	.	.	.	.	.	.
*	*	*Xrep	*	*	*	*	*	*	*	*
*tremolo	*	*rep	*	*	*	*	*	*	*	*
!	!	!	!	!	!	!	!	!	!LO:SIC:v:s=2e\	!LO:SIC:v:s=2e\
8E\L	x x 3#r	16e/LL	2bb\	2B\	.	-cor-	2b\	-cor-	2d\	2d\
.	.	16b\	.	.	.	.	.	.	.	.
8E\	.	16gg#\	.	.	.	.	.	.	.	.
.	.	16b\JJ	.	.	.	.	.	.	.	.
*	*	*Xrep	*	*	*	*	*	*	*	*
*	*	*rep	*	*	*	*	*	*	*	*
8E\	.	16e/LL	.	.	.	.	.	.	.	.
.	.	16b\	.	.	.	.	.	.	.	.
8E\J	.	16gg#\	.	.	.	.	.	.	.	.
.	.	16b\JJ	.	.	.	.	.	.	.	.
*	*	*Xrep	*	*	*	*	*	*	*	*
=52	=52	=52	=52	=52	=52	=52	=52	=52	=52	=52
*	*	*rep	*	*	*	*	*	*	*	*
!	!	!	!LO:LB:g=original	!	!	!	!	!	!	!
8E\L	x x 3#r	16e/LL	(32gg#X\LLL	4.G#X\	.	-da-	4.g#X/	-da-	4e\	4e\
.	.	.	32ff#\JJ)	.	.	.	.	.	.	.
!	!	!	!LO:N:vis=8	!	!	!	!	!	!	!
.	.	16b\	8.ee\J	.	.	.	.	.	.	.
8E\	.	16gg#X\	.	.	.	.	.	.	.	.
.	.	16b\JJ	.	.	.	.	.	.	.	.
*	*	*Xrep	*	*	*	*	*	*	*	*
*	*	*rep	*	*	*	*	*	*	*	*
8E\	.	16e/LL	8ee\|L	.	.	.	.	.	4e\	4e\
.	.	16b\	.	.	.	.	.	.	.	.
8E\J	.	16gg#\	8ee\|J	8F#\	.	-tus	8f#/	.	.	.
.	.	16b\JJ	.	.	.	.	.	.	.	.
*	*	*Xrep	*	*	*	*	*	*	*	*
*	*	*rep	*	*	*	*	*	*	*	*
8E\L	x x 3#r	16e/LL	(32gg#\LLL	2E\	.	mi-	2e/	-tus	4e\	4e\
.	.	.	32ff#\JJ	.	.	.	.	.	.	.
!	!	!	!LO:N:vis=8	!	!	!	!	!	!	!
.	.	16b\	8.ee\J)	.	.	.	.	.	.	.
8E\	.	16gg#\	.	.	.	.	.	.	.	.
.	.	16b\JJ	.	.	.	.	.	.	.	.
*	*	*Xrep	*	*	*	*	*	*	*	*
*	*	*rep	*	*	*	*	*	*	*	*
8E\	.	16e/LL	8ee\|L	.	.	.	.	.	4e\	4e\
.	.	16b\	.	.	.	.	.	.	.	.
8E\J	.	16gg#\	8ee\|J	.	.	.	.	.	.	.
.	.	16b\JJ	.	.	.	.	.	.	.	.
*	*	*Xrep	*	*	*	*	*	*	*	*
=53	=53	=53	=53	=53	=53	=53	=53	=53	=53	=53
*Xtremolo	*	*tremolo	*	*	*	*	*	*	*	*
!	!	!	!	!	!	!	!LO:LB:g=original	!	!	!
8G#X\L	x x 6	16ee\LL	16bb\LL	4G#X\	.	-se-	4b\	mi-	2e\	2e\
.	.	16ee\	16ee\	.	.	.	.	.	.	.
8E\	.	16ee\	16ee\	.	.	.	.	.	.	.
.	.	16ee\	16ee\JJ	.	.	.	.	.	.	.
8B\	x x 6\	16ee\	16ddd\LL	8B\	.	-ri-	8g#X\	-se-	.	.
.	.	16ee\	16ee\	.	.	.	.	.	.	.
8E\J	.	16ee\	16ee\	8B\	.	-cor-	8g#\	-ri-	.	.
.	.	16ee\JJ	16ee\JJ	.	.	.	.	.	.	.
8A\L	x x 5	16ee\LL	16ccc#X\LL	4A\	.	-di-	4a\	-cor-	2r	2r
.	.	16ee\	16ee\	.	.	.	.	.	.	.
8E\	.	16ee\	16ee\	.	.	.	.	.	.	.
.	.	16ee\	16ee\JJ	.	.	.	.	.	.	.
8G#X\	x x 6	16ee\	16bb\LL	8G#X\	.	.	8b\	-di-	.	.
.	.	16ee\	16ee\	.	.	.	.	.	.	.
8E\J	.	16ee\	16ee\	8G#\	.	-e	8b\	-e	.	.
.	.	16ee\JJ	16ee\JJ	.	.	.	.	.	.	.
*	*	*Xtremolo	*	*	*	*	*	*	*	*
=54	=54	=54	=54	=54	=54	=54	=54	=54	=54	=54
!LO:LB:g=original	!	!	!	!	!	!	!	!	!	!
!LO:TX:t=P:problem=mixed beam	!	!LO:TX:t=P:problem=mixed beam	!LO:TX:t=P:problem=mixed beam	!	!	!	!	!	!	!
8A\L	.	8ee\L	8ccc#\L	4A\	.	su-	(8.cc#\L	Su-	4A/	4a\
8AA/|	.	16a/L	16a/L	.	.	.	.	.	.	.
.	.	16a/JJ	16a/JJ	.	.	.	16b\Jk)	.	.	.
8C#/|	.	16e/LL	16e/LL	4A\	.	-e	4a\	-e	4A/	4A/
.	.	16e/	16e/	.	.	.	.	.	.	.
8E\|J	.	16c#/	16c#/	.	.	.	.	.	.	.
.	.	16c#/JJ	16c#/JJ	.	.	.	.	.	.	.
8A\|L	.	4A/ 4e/ 4a/	4A/ 4e/ 4a/ 4ee/	2r	.	.	2r	.	2r	2r
8G\|	.	.	.	.	.	.	.	.	.	.
8F#X\|	.	4r	4r	.	.	.	.	.	.	.
8E\|J	.	.	.	.	.	.	.	.	.	.
=55	=55	=55	=55	=55	=55	=55	=55	=55	=55	=55
!	!	!	!	!	!	!	!	!	!	!LO:LB:g=original
8F#\L	x x 6	8dd\	16aa\LL	2F#\	.	Si-	2a\	Si-	4f#\	4a\
.	.	.	16aa\	.	.	.	.	.	.	.
8D\	.	4dd\	16ff#\	.	.	.	.	.	.	.
.	.	.	16ff#\JJ	.	.	.	.	.	.	.
8F#\	.	.	16dd\LL	.	.	.	.	.	4f#\	4a\
.	.	.	16dd\	.	.	.	.	.	.	.
8D\J	.	4dd\	16a\	.	.	.	.	.	.	.
.	.	.	16a\JJ	.	.	.	.	.	.	.
8F#\L	x x 6	.	16aa\LL	4F#\	.	-cut	4a\	.	4f#\	4a\
.	.	.	16aa\	.	.	.	.	.	.	.
8D\	.	4dd\	16ff#\	.	.	.	.	.	.	.
.	.	.	16ff#\JJ	.	.	.	.	.	.	.
8F#\	.	.	16dd\LL	4F#\	.	lo-	4a\	-cut	4f#\	4a\
.	.	.	16dd\	.	.	.	.	.	.	.
8D\J	.	8dd\	16a\	.	.	.	.	.	.	.
.	.	.	16a\JJ	.	.	.	.	.	.	.
=56	=56	=56	=56	=56	=56	=56	=56	=56	=56	=56
8BB/L	x x 6	16dd\LL	8b\	4.G\	.	-cu-	4.b\	lo-	2g\	2b\
.	.	16dd\	.	.	.	.	.	.	.	.
8GG/	.	16b\	4bb\	.	.	.	.	.	.	.
.	.	16b\JJ	.	.	.	.	.	.	.	.
8BB/	.	16g/LL	.	.	.	.	.	.	.	.
.	.	16g/	.	.	.	.	.	.	.	.
8GG/J	.	16d/	4bb\	8G\	.	-tus	8b\	-cu-	.	.
.	.	16d/JJ	.	.	.	.	.	.	.	.
!	!	!LO:LB:g=original	!	!	!	!	!	!	!	!
8BB/L	x x 6	16dd\LL	.	2G\	.	est	2b\	-tus	2g\	2b\
.	.	16dd\	.	.	.	.	.	.	.	.
8GG/	.	16b\	4bb\	.	.	.	.	.	.	.
.	.	16b\JJ	.	.	.	.	.	.	.	.
8BB/	.	16g/LL	.	.	.	.	.	.	.	.
.	.	16g/	.	.	.	.	.	.	.	.
8GG/J	.	16d/	8bb\	.	.	.	.	.	.	.
.	.	16d/JJ	.	.	.	.	.	.	.	.
=57	=57	=57	=57	=57	=57	=57	=57	=57	=57	=57
!	!	!	!LO:LB:g=original	!LO:LB:g=original	!	!	!	!	!	!
8C#\L	x x 7	8e/	16bb\LL	2C#/	.	a-	2b\	est	4g\	4a\
.	.	.	16bb\	.	.	.	.	.	.	.
8E\	.	4ee\	16gg\	.	.	.	.	.	.	.
.	.	.	16gg\JJ	.	.	.	.	.	.	.
8C#\	.	.	16ee\LL	.	.	.	.	.	4g\	4a\
.	.	.	16ee\	.	.	.	.	.	.	.
8E\J	.	4ee\	16cc#\	.	.	.	.	.	.	.
.	.	.	16cc#\JJ	.	.	.	.	.	.	.
8C#\L	x x 7	.	16bb\LL	4C#/	.	-bra-	4gg\	ad	4g\	4a\
.	.	.	16bb\	.	.	.	.	.	.	.
8E\	.	4ee\	16gg\	.	.	.	.	.	.	.
.	.	.	16gg\JJ	.	.	.	.	.	.	.
8C#\	.	.	16ee\LL	4C#/	.	-cham	4b\	Pa-	4g\	4a\
.	.	.	16ee\	.	.	.	.	.	.	.
8E\J	.	8ee\	16cc#\	.	.	.	.	.	.	.
.	.	.	16cc#\JJ	.	.	.	.	.	.	.
=58	=58	=58	=58	=58	=58	=58	=58	=58	=58	=58
!LO:TX:t=P:problem=zbędny takt cor 1	!	!LO:TX:t=P:problem=zbędny takt cor 1	!LO:TX:t=P:problem=zbędny takt cor 1	!LO:TX:t=P:problem=zbędny takt cor 1	!	!	!LO:TX:t=P:problem=zbędny takt cor 1	!	!LO:TX:t=P:problem=zbędny takt cor 1	!LO:TX:t=P:problem=zbędny takt
1ryy	.	1ryy	1ryy	1ryy	.	.	1ryy	.	1ryy	4b\
.	.	.	.	.	.	.	.	.	.	4b\
.	.	.	.	.	.	.	.	.	.	4b\
.	.	.	.	.	.	.	.	.	.	4b\
=59	=59	=59	=59	=59	=59	=59	=59	=59	=59	=59
!	!	!	!	!	!	!	!	!	!LO:LB:g=original	!
8F#\L	x x 7	16ee\LL	8aa\	2F#\	.	nos-	2a\	-tres	4f#\	4a\
.	.	16ee\	.	.	.	.	.	.	.	.
8A\	.	16cc#\	4aa\	.	.	.	.	.	.	.
.	.	16cc#\JJ	.	.	.	.	.	.	.	.
8F#\	.	16a/LL	.	.	.	.	.	.	4f#\	4a\
.	.	16a/	.	.	.	.	.	.	.	.
8A\J	.	16f#/	4aa\	.	.	.	.	.	.	.
.	.	16f#/JJ	.	.	.	.	.	.	.	.
8F#\L	x x 7	16ee\LL	.	2F#\	.	-tros	2a\	no-	4f#\	4a\
.	.	16ee\	.	.	.	.	.	.	.	.
8A\	.	16cc#\	4aa\	.	.	.	.	.	.	.
.	.	16cc#\JJ	.	.	.	.	.	.	.	.
8F#\	.	16a/LL	.	.	.	.	.	.	4f#\	4a\
.	.	16a/	.	.	.	.	.	.	.	.
8A\J	.	16f#/	8aa\	.	.	.	.	.	.	.
.	.	16f#/JJ	.	.	.	.	.	.	.	.
=60	=60	=60	=60	=60	=60	=60	=60	=60	=60	=60
8BB/L	x x 7	8dd\	16aa\LL	4.BB/	.	a-	4.a\	.	2e\	2a\
.	.	.	16aa\	.	.	.	.	.	.	.
8D\	.	4dd\	16ff#\	.	.	.	.	.	.	.
.	.	.	16ff#\JJ	.	.	.	.	.	.	.
8BB/	.	.	16dd\LL	.	.	.	.	.	.	.
.	.	.	16dd\	.	.	.	.	.	.	.
!	!	!	!LO:TX:a:t=h	!	!	!	!	!	!	!
8D\J	.	4dd\	16b\	8BB/	.	-bra-	8a\	-stras	.	.
!	!	!	!LO:TX:a:t=h	!	!	!	!LO:LB:g=original	!	!	!
.	.	.	16b\JJ	.	.	.	.	.	.	.
8BB/L	x x 7	.	16aa\LL	4BB/	.	-cham	4a\	ab-	2e\	2a\
.	.	.	16aa\	.	.	.	.	.	.	.
8D\	.	4dd\	16ff#\	.	.	.	.	.	.	.
.	.	.	16ff#\JJ	.	.	.	.	.	.	.
8BB/	.	.	16dd\LL	4BB/	.	et	4a\	-ram	.	.
.	.	.	16dd\	.	.	.	.	.	.	.
!	!	!	!LO:TX:a:t=h	!	!	!	!	!	!	!
8D\J	.	8dd\	16b\	.	.	.	.	.	.	.
!	!	!	!LO:TX:a:t=h	!	!	!	!	!	!	!
.	.	.	16b\JJ	.	.	.	.	.	.	.
=61	=61	=61	=61	=61	=61	=61	=61	=61	=61	=61
!LO:LB:g=original	!	!	!	!	!	!	!	!	!	!
8E\L	x x 7	16dd\LL	8gg\	4.E\	.	se-	4.g/	et	2e\	2g\
.	.	16dd\	.	.	.	.	.	.	.	.
8G\	.	16b\	4gg\	.	.	.	.	.	.	.
.	.	16b\JJ	.	.	.	.	.	.	.	.
8E\	.	16g/LL	.	.	.	.	.	.	.	.
.	.	16g/	.	.	.	.	.	.	.	.
8G\J	.	16d/	4gg\	8E\	.	-mi-	8g/	se-	.	.
.	.	16d/JJ	.	.	.	.	.	.	.	.
8E\L	x x 7	16dd\LL	.	2E\	.	-ni	2g/	-mi-	2e\	2g\
.	.	16dd\	.	.	.	.	.	.	.	.
8G\	.	16b\	4gg\	.	.	.	.	.	.	.
.	.	16b\JJ	.	.	.	.	.	.	.	.
8E\	.	16g/LL	.	.	.	.	.	.	.	.
.	.	16g/	.	.	.	.	.	.	.	.
8G\J	.	16d/	8gg\	.	.	.	.	.	.	.
.	.	16d/JJ	.	.	.	.	.	.	.	.
=62	=62	=62	=62	=62	=62	=62	=62	=62	=62	=62
8AA/L	x x 7	8cc#\ 8ee\	16gg\LL	2AA/	.	e-	2g/	-ni	4e\	4g\
.	.	.	16gg\	.	.	.	.	.	.	.
8C#/	.	4cc#\ 4ee\	16ee\	.	.	.	.	.	.	.
.	.	.	16ee\JJ	.	.	.	.	.	.	.
8AA/	.	.	16cc#\LL	.	.	.	.	.	4e\	4g\
.	.	.	16cc#\	.	.	.	.	.	.	.
8C#/J	.	4cc#\ 4ee\	16a\	.	.	.	.	.	.	.
.	.	.	16a\JJ	.	.	.	.	.	.	.
8AA/L	x x 7	.	16gg\LL	4AA/	.	-ius	4ee\	e-	4e\	4g\
.	.	.	16gg\	.	.	.	.	.	.	.
8C#/	.	4cc#\ 4ee\	16ee\	.	.	.	.	.	.	.
.	.	.	16ee\JJ	.	.	.	.	.	.	.
8AA/	.	.	16cc#\LL	4AA/	.	in	4e/	-ius	4e\	4g\
.	.	.	16cc#\	.	.	.	.	.	.	.
8C#/J	.	8cc#\ 8ee\	16a\	.	.	.	.	.	.	.
.	.	.	16a\JJ	.	.	.	.	.	.	.
=63	=63	=63	=63	=63	=63	=63	=63	=63	=63	=63
!	!	!LO:LB:g=original	!LO:LB:g=original	!	!	!	!	!	!	!
8D/L	.	16dd\LL	4d/ 4a/ 4ff#/	4D\	.	se-	4f#/	in	4d\	4f#\
.	.	16a\	.	.	.	.	.	.	.	.
8AA/J	.	16a\	.	.	.	.	.	.	.	.
.	.	16a\JJ	.	.	.	.	.	.	.	.
!	!	!	!LO:N:vis=8	!	!	!	!	!	!	!
8E/L	x x 6	16a/LL	8.cc#\L	4E\	.	.	4g/	se-	4A/	4e\
.	.	16a/	.	.	.	.	.	.	.	.
8AA/J	.	16a/	.	.	.	.	.	.	.	.
.	.	16a/JJ	(32b\LL	.	.	.	.	.	.	.
!	!	!	!LO:N:vis=32.	!	!	!	!	!	!	!
.	.	.	32cc#\JJJ)	.	.	.	.	.	.	.
*	*	*tremolo	*	*	*	*	*	*	*	*
8F#/L	x x 6	16a/LL	4dd\	4F#\	.	.	4a/	-cu-	4F#/	4d\
.	.	16a/	.	.	.	.	.	.	.	.
8AA/J	.	16a/	.	.	.	.	.	.	.	.
.	.	16a/	.	.	.	.	.	.	.	.
!	!	!	!LO:N:vis=8	!	!	!	!	!	!	!
8C#/L	x 6 5	16a/	8.gg\L	8C#/	.	-cu-	8g/L	-la	4A/	4e\
.	.	16a/	.	.	.	.	.	.	.	.
8AA/J	.	16a/	.	8C#/	.	-la	8a/J	.	.	.
.	.	16a/JJ	(32ff#\LL	.	.	.	.	.	.	.
.	.	.	32gg\JJJ)	.	.	.	.	.	.	.
=64	=64	=64	=64	=64	=64	=64	=64	=64	=64	=64
!	!	!	!	!LO:LB:g=original	!	!	!	!	!	!LO:TX:t=P:problem=brak taktu
8D/L	.	16a/LL	8ff#\L	4D\	.	se-	4f#/	Se-	4d\	1ryy
.	.	16a/	.	.	.	.	.	.	.	.
8AA/J	.	16a/	8aa\J	.	.	.	.	.	.	.
.	.	16a/	.	.	.	.	.	.	.	.
8E/L	x x 6	16a/	8.cc#\L	4E\	.	.	4g/	.	4A/	.
.	.	16a/	.	.	.	.	.	.	.	.
8AA/J	.	16a/	.	.	.	.	.	.	.	.
.	.	16a/JJ	(32b\LL	.	.	.	.	.	.	.
*	*	*Xtremolo	*	*	*	*	*	*	*	*
.	.	.	32cc#\JJJ)	.	.	.	.	.	.	.
8F#\L	x x 6	16a\LL	4cc#\|	8F#\L	.	.	4a\	.	4F#/	.
.	.	16a\	.	.	.	.	.	.	.	.
8d\J	.	16ff#\	.	8d\J	.	.	.	.	.	.
.	.	16ff#\JJ	.	.	.	.	.	.	.	.
8B\L	x 6 5	16dd\LL	8.gg\L	8B\L	.	.	4b\	.	4A/	.
.	.	16dd\	.	.	.	.	.	.	.	.
8G\J	.	16b\	.	8G\J	.	.	.	.	.	.
.	.	16b\JJ	(32ff#\LL	.	.	.	.	.	.	.
.	.	.	32gg\JJJ)	.	.	.	.	.	.	.
=65	=65	=65	=65	=65	=65	=65	=65	=65	=65	=65
!	!	!	!	!	!	!	!	!	!	!LO:LB:g=original
8A\L	x 6 4	(8.dd\L	(8.ff#\L	1A\	.	.	(8.dd\L	.	8d\L	8f#\L
8A\	.	.	.	.	.	.	.	.	8e\	8g\
.	.	16ee\Jk)	16gg\Jk)	.	.	.	16ee\Jk)	.	.	.
8A\	.	(8.ff#\L	(8.aa\L	.	.	.	(8.ff#\L	.	8f#\	8a\
8A\J	.	.	.	.	.	.	.	.	8e\J	8g\J
.	.	16ee\Jk)	16gg\Jk)	.	.	.	16ee\Jk)	.	.	.
*tremolo	*	*	*	*	*	*	*	*	*	*
8A\L	x 6 4	(8.ff#\L	(8.aa\L	.	.	.	4ff#\	.	4f#\	4a\
8A\	.	.	.	.	.	.	.	.	.	.
.	.	16a\Jk)	16gg\Jk)	.	.	.	.	.	.	.
8A\	.	(8.g/L	(8.ee\L	.	.	.	8.ff#\L	.	8e\L	8g\L
8A\J	.	.	.	.	.	.	.	.	8d\J	8f#\J
.	.	16f#/Jk)	16dd\Jk)	.	.	.	16dd\Jk	.	.	.
=66	=66	=66	=66	=66	=66	=66	=66	=66	=66	=66
!	!	!	!	!	!	!	!	!	!	!LO:TX:t=P:problem=brak taktu
8AA/L	x 7 3	(8.cc#\L	(8.ee\L	2.AA/	.	.	8.cc#\L	.	1r	1ryy
8AA/	.	.	.	.	.	.	.	.	.	.
.	.	16dd\Jk)	16ff#\Jk)	.	.	.	16dd\Jk	.	.	.
8AA/	.	(8.ee\L	(8.gg\L	.	.	.	8.ee\L	.	.	.
8AA/J	.	.	.	.	.	.	.	.	.	.
.	.	16dd\Jk)	16ff#\Jk)	.	.	.	16dd\Jk	.	.	.
!	!	!LO:TX:t=P:problem=mixed beam	!	!	!	!	!LO:LB:g=original	!	!	!
8AA/L	x 7 3	(8.ee\L	(8.gg\L	.	.	.	4ee\	.	.	.
8AA/	.	.	.	.	.	.	.	.	.	.
.	.	16g/Jk)	16ff#\Jk)	.	.	.	.	.	.	.
8AA/	.	(8.f#/L	(8.dd\L	4AA/	.	-cu-	8.dd\L	.	.	.
8AA/J	.	.	.	.	.	.	.	.	.	.
.	.	16e/Jk)	16cc#\Jk)	.	.	.	16cc#\Jk	-cu-	.	.
*Xtremolo	*	*	*	*	*	*	*	*	*	*
=67	=67	=67	=67	=67	=67	=67	=67	=67	=67	=67
!LO:LB:g=original	!	!	!LO:TX:t=P:problem=mixed beam	!	!	!	!	!	!	!
4DD/|>	.	8f#/L	8dd\L	4D/	.	-la	4dd\	-la	8F#/L	8d\L
.	.	(16f#/L	16d/L	.	.	.	.	.	16F#/L	16d\L
.	.	16e/JJ)	16c#/JJ	.	.	.	.	.	16F#/JJ	16d\JJ
4D\|	.	(16f#/LL	(16d/LL	4r	.	.	4r	.	8F#/L	8d\L
.	.	16e/)	16c#/)	.	.	.	.	.	.	.
.	.	(16f#/	(16d/	.	.	.	.	.	8F#/	8d\
.	.	16e/JJ)	16c#/JJ)	.	.	.	.	.	.	.
4DD/|>	.	4f#/	4d/	2r	.	.	2r	.	8F#/	8d\
.	.	.	.	.	.	.	.	.	8F#/J	8d\J
4F#\	x x 6	4a/	(8.dd\L	.	.	.	.	.	4r	4r
.	.	.	16ff#\Jk)	.	.	.	.	.	.	.
=68	=68	=68	=68	=68	=68	=68	=68	=68	=68	=68
!	!	!	!	!	!	!	!	!	!LO:LB:g=original	!
!	!	!LO:LB:g=original	!LO:LB:g=original	!LO:TX:a:t=15.	!	!	!LO:TX:a:t=15	!	!LO:TX:a:t=8	!LO:TX:a:t=8
4G\	6 4 3	4b/	(8.ee\L	00r	.	.	00r	.	00r	00r
.	.	.	16cc#\Jk)	.	.	.	.	.	.	.
4F#\	x x 6	4a/	(8.dd\L	.	.	.	.	.	.	.
.	.	.	16ff#\Jk)	.	.	.	.	.	.	.
4G\	6 4 3	4b/	(8.ee\L	.	.	.	.	.	.	.
.	.	.	16cc#\Jk)	.	.	.	.	.	.	.
4F#\	x x 6	4a/	(8.dd\L	.	.	.	.	.	.	.
.	.	.	16ff#\Jk)	.	.	.	.	.	.	.
=69	=69	=69	=69	=69	=69	=69	=69	=69	=69	=69
4G\	6 4 3	4b/	(8.ee\L	.	.	.	.	.	.	.
.	.	.	16cc#\Jk)	.	.	.	.	.	.	.
4F#\	x x 6	4a/	8dd\L	.	.	.	.	.	.	.
.	.	.	8aa\J	.	.	.	.	.	.	.
.	.	.	8qqaa/	.	.	.	.	.	.	.
4E\	x x 7	4b/	2gg\	.	.	.	.	.	.	.
4AA/	x x 7	4cc#/	.	.	.	.	.	.	.	.
=70	=70	=70	=70	=70	=70	=70	=70	=70	=70	=70
*	*	*tuplet	*tuplet	*	*	*	*	*	*	*
!	!	!LO:TUP:a:problem=klamra łukowa	!LO:TUP:a:problem=klamra łukowa	!	!	!	!	!	!	!
4D\	.	12dd\L	12ff#\L	.	.	.	.	.	.	.
.	.	12ee\	12gg\	.	.	.	.	.	.	.
.	.	12ff#\J	12aa\J	.	.	.	.	.	.	.
!	!	!LO:TUP:a:problem=klamra łukowa	!LO:TUP:a:problem=klamra łukowa	!	!	!	!	!	!	!
4G\	.	12gg\L	12bb\L	.	.	.	.	.	.	.
.	.	12aa\	12ccc#\	.	.	.	.	.	.	.
.	.	12bb\J	12ddd\J	.	.	.	.	.	.	.
*	*	*Xtuplet	*Xtuplet	*	*	*	*	*	*	*
4A\	.	12aa\|L	12ccc#\|L	.	.	.	.	.	.	.
.	.	12gg\|	12bb\|	.	.	.	.	.	.	.
.	.	12ff#\|J	12aa\|J	.	.	.	.	.	.	.
4AA/	x x 7	12ee\|L	12gg\'L	.	.	.	.	.	.	.
.	.	12dd\|	12ff#\'	.	.	.	.	.	.	.
.	.	12cc#\|J	12ee\'J	.	.	.	.	.	.	.
=71	=71	=71	=71	=71	=71	=71	=71	=71	=71	=71
4D\|	.	(16dd\LL	(16ff#\LL	.	.	.	.	.	.	.
.	.	16cc#\	16ee\	.	.	.	.	.	.	.
.	.	16dd\	16ff#\	.	.	.	.	.	.	.
.	.	16ee\JJ)	16gg\JJ)	.	.	.	.	.	.	.
4d\|	.	8.ff#\L	8aa\L	.	.	.	.	.	.	.
.	.	.	8aa\J	.	.	.	.	.	.	.
.	.	16ff#\Jk	.	.	.	.	.	.	.	.
.	.	.	8qqgg#X/	.	.	.	.	.	.	.
4D\|	.	4d/ 4a/ 4ff#/	4aa\	.	.	.	.	.	.	.
4F#\	x x 6	4a/	(8.dd\L	.	.	.	.	.	.	.
.	.	.	16ff#\Jk)	.	.	.	.	.	.	.
=72	=72	=72	=72	=72	=72	=72	=72	=72	=72	=72
4G\	6 4 3	4b/	(8.ee\L	00r	.	.	00r	.	00r	00r
.	.	.	16cc#\Jk)	.	.	.	.	.	.	.
4F#\	x x 6	4a/	(8.dd\L	.	.	.	.	.	.	.
.	.	.	16ff#\Jk)	.	.	.	.	.	.	.
4G\	6 4 3	4b/	(8.ee\L	.	.	.	.	.	.	.
.	.	.	16cc#\Jk)	.	.	.	.	.	.	.
4F#\	x x 6	4a/	(8.dd\L	.	.	.	.	.	.	.
.	.	.	16ff#\Jk)	.	.	.	.	.	.	.
=73	=73	=73	=73	=73	=73	=73	=73	=73	=73	=73
!	!	!	!LO:LB:g=original	!	!	!	!	!	!	!
4G\	6 4 3	4b/	(8.ee\L	.	.	.	.	.	.	.
.	.	.	16cc#\Jk)	.	.	.	.	.	.	.
4F#\	x x 6	4a/	(8.dd\L	.	.	.	.	.	.	.
.	.	.	16aa\Jk)	.	.	.	.	.	.	.
.	.	.	8qqaa/	.	.	.	.	.	.	.
4E\	x x 7	4b/	2gg\	.	.	.	.	.	.	.
4AA/	x x 7	4cc#/	.	.	.	.	.	.	.	.
=74	=74	=74	=74	=74	=74	=74	=74	=74	=74	=74
*	*	*tuplet	*	*	*	*	*	*	*	*
!	!	!LO:TUP:a:problem=klamra łukowa	!	!	!	!	!	!	!	!
4D/	.	12dd\L	12ff#\'L	.	.	.	.	.	.	.
.	.	12ee\	12gg\'	.	.	.	.	.	.	.
.	.	12ff#\J	12aa\'J	.	.	.	.	.	.	.
!	!	!LO:TUP:a:problem=klamra łukowa	!LO:TUP:a:problem=klamra łukowa	!	!	!	!	!	!	!
4GG/	.	12gg\L	12bb\L	.	.	.	.	.	.	.
.	.	12aa\	12ccc#\	.	.	.	.	.	.	.
.	.	12bb\J	12ddd\J	.	.	.	.	.	.	.
*	*	*Xtuplet	*	*	*	*	*	*	*	*
!	!	!LO:LB:g=original	!	!	!	!	!	!	!	!
4AA/	.	12aa\'L	12ccc#\|L	.	.	.	.	.	.	.
.	.	12gg\'	12bb\|	.	.	.	.	.	.	.
.	.	12ff#\'J	12aa\|J	.	.	.	.	.	.	.
4AA/	x x 7	12ee\|L	12gg\|L	.	.	.	.	.	.	.
.	.	12dd\|	12ff#\|	.	.	.	.	.	.	.
.	.	12cc#\|J	12ee\|J	.	.	.	.	.	.	.
=75	=75	=75	=75	=75	=75	=75	=75	=75	=75	=75
!LO:TX:t=P:problem=zbędny takt cor 1 i cor 2	!	!LO:TX:t=P:problem=zbędny takt cor 1 i cor 2	!LO:TX:t=P:problem=zbędny takt cor 1 i cor 2	!LO:TX:t=P:problem=zbędny takt cor 1 i cor 2	!	!	!LO:TX:t=P:problem=zbędny takt cor 1 i cor 2	!	!LO:TX:t=P:problem=zbędny takt	!LO:TX:t=P:problem=zbędny takt
1ryy	.	1ryy	1ryy	.	.	.	.	.	.	.
=76	=76	=76	=76	=76	=76	=76	=76	=76	=76	=76
*	*	*	*^	*	*	*	*	*	*	*
!LO:TX:t=P:problem=mixed beam	!	!	!	!	!	!	!	!	!	!	!
8DD/L	.	(16d/LL	12d/L 12a/	8ff#/	1ryy	.	.	1ryy	.	4f#\	4a\
.	.	16f#/	.	.	.	.	.	.	.	.	.
.	.	.	12d/	.	.	.	.	.	.	.	.
8D\J	.	16a/	.	2.ryy	.	.	.	.	.	.	.
.	.	.	12d/J	.	.	.	.	.	.	.	.
.	.	16f#/JJ)	.	.	.	.	.	.	.	.	.
*	*	*rep	*	*	*	*	*	*	*	*	*
!LO:TX:t=P:problem=mixed beam	!	!	!	!	!	!	!	!	!	!	!
8DD/L	.	(16d/LL	12d/L	.	.	.	.	.	.	4f#\	4a\
.	.	16f#/	.	.	.	.	.	.	.	.	.
.	.	.	12d/	.	.	.	.	.	.	.	.
8D\J	.	16a/	.	.	.	.	.	.	.	.	.
.	.	.	12d/J	.	.	.	.	.	.	.	.
.	.	16f#/JJ)	.	.	.	.	.	.	.	.	.
*	*	*Xrep	*	*	*	*	*	*	*	*	*
*rep	*	*rep	*	*	*	*	*	*	*	*	*
!LO:TX:t=P:problem=mixed beam	!	!	!	!	!	!	!	!	!	!	!
8DD/L	.	(16d/LL	12d/L	.	.	.	.	.	.	4f#\	4a\
.	.	16f#/	.	.	.	.	.	.	.	.	.
.	.	.	12f#/	.	.	.	.	.	.	.	.
8D\J	.	16a/	.	.	.	.	.	.	.	.	.
.	.	.	12a/J	.	.	.	.	.	.	.	.
.	.	16f#/JJ)	.	.	.	.	.	.	.	.	.
*	*	*Xrep	*	*	*	*	*	*	*	*	*
*	*	*rep	*	*	*	*	*	*	*	*	*
!LO:TX:t=P:problem=mixed beam	!	!	!	!	!	!	!	!	!	!	!
8DD/L	.	(16d/LL	12dd\|L	.	.	.	.	.	.	4f#\	4a\
.	.	16f#/	.	.	.	.	.	.	.	.	.
.	.	.	12ff#\|	.	.	.	.	.	.	.	.
8D\J	.	16a/	.	8ryy	.	.	.	.	.	.	.
.	.	.	12aa\|J	.	.	.	.	.	.	.	.
.	.	16f#/JJ)	.	.	.	.	.	.	.	.	.
*Xrep	*	*Xrep	*	*	*	*	*	*	*	*	*
=77	=77	=77	=77	=77	=77	=77	=77	=77	=77	=77	=77
!LO:PB:g=original	!	!	!	!	!	!	!	!	!	!	!
!LO:TX:t=P:problem=mixed beam	!	!	!	!	!	!	!	!	!	!	!
8DD/L	x 6 4	16d/LL	12d/L 12a/	8ff#/	00r	.	.	00r	.	2g\	2b\
.	.	16b\	.	.	.	.	.	.	.	.	.
.	.	.	12d/	.	.	.	.	.	.	.	.
8D\J	.	16g/	.	4.ryy	.	.	.	.	.	.	.
.	.	.	12d/J	.	.	.	.	.	.	.	.
.	.	16b\JJ	.	.	.	.	.	.	.	.	.
*	*	*rep	*	*	*	*	*	*	*	*	*
!LO:TX:t=P:problem=mixed beam	!	!	!	!	!	!	!	!	!	!	!
8DD/L	.	16d/LL	12d/L	.	.	.	.	.	.	.	.
.	.	16b\	.	.	.	.	.	.	.	.	.
.	.	.	12d/	.	.	.	.	.	.	.	.
8D\J	.	16g/	.	.	.	.	.	.	.	.	.
.	.	.	12d/J	.	.	.	.	.	.	.	.
.	.	16b\JJ	.	.	.	.	.	.	.	.	.
*	*	*Xrep	*	*	*	*	*	*	*	*	*
*	*	*rep	*	*	*	*	*	*	*	*	*
!LO:TX:t=P:problem=mixed beam	!	!	!	!	!	!	!	!	!	!	!
8DD/L	7 4 2	16d/LL	12d/L 12b/ 12gg/	8gg/	.	.	.	.	.	2g\	2b\
.	.	16b\	.	.	.	.	.	.	.	.	.
.	.	.	12d/	.	.	.	.	.	.	.	.
8D\J	.	16g/	.	4.ryy	.	.	.	.	.	.	.
.	.	.	12d/J	.	.	.	.	.	.	.	.
.	.	16b\JJ	.	.	.	.	.	.	.	.	.
*	*	*Xrep	*	*	*	*	*	*	*	*	*
*	*	*rep	*	*	*	*	*	*	*	*	*
!LO:TX:t=P:problem=mixed beam	!	!	!	!	!	!	!	!	!	!	!
8DD/L	.	16d/LL	12d/L	.	.	.	.	.	.	.	.
.	.	16b\	.	.	.	.	.	.	.	.	.
.	.	.	12d/	.	.	.	.	.	.	.	.
8D\J	.	16g/	.	.	.	.	.	.	.	.	.
.	.	.	12d/J	.	.	.	.	.	.	.	.
.	.	16b\JJ	.	.	.	.	.	.	.	.	.
*	*	*Xrep	*	*	*	*	*	*	*	*	*
=78	=78	=78	=78	=78	=78	=78	=78	=78	=78	=78	=78
!LO:TX:t=P:problem=mixed beam	!	!	!	!	!	!	!	!	!	!	!
8DD/L	8 5 3	16d/LL	12d/L 12a/	8ff#/	.	.	.	.	.	4f#\	4a\
.	.	16f#/	.	.	.	.	.	.	.	.	.
.	.	.	12d/	.	.	.	.	.	.	.	.
8D\J	.	16a/	.	2.ryy	.	.	.	.	.	.	.
.	.	.	12d/J	.	.	.	.	.	.	.	.
.	.	16f#/JJ	.	.	.	.	.	.	.	.	.
*	*	*rep	*	*	*	*	*	*	*	*	*
!LO:TX:t=P:problem=mixed beam	!	!	!	!	!	!	!	!	!	!	!
8DD/L	.	16d/LL	12d/L	.	.	.	.	.	.	4f#\	4a\
.	.	16f#/	.	.	.	.	.	.	.	.	.
.	.	.	12d/	.	.	.	.	.	.	.	.
8D\J	.	16a/	.	.	.	.	.	.	.	.	.
.	.	.	12d/J	.	.	.	.	.	.	.	.
.	.	16f#/JJ	.	.	.	.	.	.	.	.	.
*	*	*Xrep	*	*	*	*	*	*	*	*	*
*	*	*rep	*	*	*	*	*	*	*	*	*
!LO:TX:t=P:problem=mixed beam	!	!	!	!	!	!	!	!	!	!	!
8DD/L	.	16d/LL	12d/L	.	.	.	.	.	.	4f#\	4a\
.	.	16f#/	.	.	.	.	.	.	.	.	.
.	.	.	12f#/	.	.	.	.	.	.	.	.
8D\J	.	16a/	.	.	.	.	.	.	.	.	.
.	.	.	12a/J	.	.	.	.	.	.	.	.
.	.	16f#/JJ	.	.	.	.	.	.	.	.	.
*	*	*Xrep	*	*	*	*	*	*	*	*	*
*	*	*rep	*	*	*	*	*	*	*	*	*
!LO:TX:t=P:problem=mixed beam	!	!	!	!	!	!	!	!	!	!	!
8DD/L	.	16d/LL	12dd\|L	.	.	.	.	.	.	4f#\	4a\
.	.	16f#/	.	.	.	.	.	.	.	.	.
.	.	.	12ff#\|	.	.	.	.	.	.	.	.
8D\J	.	16a/	.	8ryy	.	.	.	.	.	.	.
.	.	.	12aa\|J	.	.	.	.	.	.	.	.
.	.	16f#/JJ	.	.	.	.	.	.	.	.	.
*	*	*Xrep	*	*	*	*	*	*	*	*	*
=79	=79	=79	=79	=79	=79	=79	=79	=79	=79	=79	=79
!LO:TX:t=P:problem=mixed beam	!	!	!	!LO:LB:g=original	!	!	!	!	!	!	!
8DD/L	x 6 4	16d/LL	12d/L 12a/	8ff#/	.	.	.	.	.	4g\	4b\
.	.	16b\	.	.	.	.	.	.	.	.	.
.	.	.	12d/	.	.	.	.	.	.	.	.
8D\J	.	16g/	.	4.ryy	.	.	.	.	.	.	.
.	.	.	12d/J	.	.	.	.	.	.	.	.
.	.	16b\JJ	.	.	.	.	.	.	.	.	.
*	*	*rep	*	*	*	*	*	*	*	*	*
!LO:TX:t=P:problem=mixed beam	!	!	!	!	!	!	!	!	!	!	!
8DD/L	.	16d/LL	12d/L	.	.	.	.	.	.	4g\	4b\
.	.	16b\	.	.	.	.	.	.	.	.	.
.	.	.	12d/	.	.	.	.	.	.	.	.
8D\J	.	16g/	.	.	.	.	.	.	.	.	.
.	.	.	12d/J	.	.	.	.	.	.	.	.
.	.	16b\JJ	.	.	.	.	.	.	.	.	.
*	*	*Xrep	*	*	*	*	*	*	*	*	*
*	*	*rep	*	*	*	*	*	*	*	*	*
!LO:TX:t=P:problem=mixed beam	!	!	!	!	!	!	!	!	!	!	!
8DD/L	7 4 2	16d/LL	12d/L 12b/	8gg/	.	.	.	.	.	4g\	4b\
.	.	16b\	.	.	.	.	.	.	.	.	.
.	.	.	12d/	.	.	.	.	.	.	.	.
8D\J	.	16g/	.	4.ryy	.	.	.	.	.	.	.
.	.	.	12d/J	.	.	.	.	.	.	.	.
.	.	16b\JJ	.	.	.	.	.	.	.	.	.
*	*	*Xrep	*	*	*	*	*	*	*	*	*
*	*	*rep	*	*	*	*	*	*	*	*	*
!LO:TX:t=P:problem=mixed beam	!	!	!	!	!	!	!	!	!	!	!
8DD/L	.	16d/LL	12d/L	.	.	.	.	.	.	4g\	4b\
.	.	16b\	.	.	.	.	.	.	.	.	.
.	.	.	12d/	.	.	.	.	.	.	.	.
8D\J	.	16g/	.	.	.	.	.	.	.	.	.
.	.	.	12d/J	.	.	.	.	.	.	.	.
.	.	16b\JJ	.	.	.	.	.	.	.	.	.
*	*	*Xrep	*	*	*	*	*	*	*	*	*
*	*	*	*v	*v	*	*	*	*	*	*	*
=80	=80	=80	=80	=80	=80	=80	=80	=80	=80	=80
!	!	!	!	!	!	!	!	!	!	!LO:LB:g=original
(16d\LL	x 8 3	8d/ 8a/ 8ff#/	8d/ 8a/ 8ff#/	.	.	.	.	.	4d\	4f#\
16c#\)	.	.	.	.	.	.	.	.	.	.
(16d\	.	8r	8r	.	.	.	.	.	.	.
16c#\JJ)	.	.	.	.	.	.	.	.	.	.
!	!	!	!	!	!	!	!	!	!	!
8d\|	.	(16ff#\LL	(16aa\LL	.	.	.	.	.	8f#\L	8a\L
.	.	16ee\)	16gg\)	.	.	.	.	.	.	.
8r	.	(16ff#\	(16aa\	.	.	.	.	.	8f#\J	8a\J
.	.	16ee\JJ)	16gg\JJ)	.	.	.	.	.	.	.
!	!	!LO:LB:g=original	!	!	!	!	!	!	!	!
(16d\LL	.	8d/ 8a/ 8ff#/	8d/ 8a/ 8ff#/	.	.	.	.	.	4f#\	4a\
16c#\)	.	.	.	.	.	.	.	.	.	.
(16d\	.	8r	8r	.	.	.	.	.	.	.
16c#\JJ)	.	.	.	.	.	.	.	.	.	.
8d\	.	(16aa\LL	(16ff#\LL	.	.	.	.	.	8d\L	8f#\L
.	.	16gg\)	16ee\)	.	.	.	.	.	.	.
8r	.	(16aa\	(16ff#\	.	.	.	.	.	8d\J	8f#\J
.	.	16gg\JJ)	16ee\JJ)	.	.	.	.	.	.	.
=81	=81	=81	=81	=81	=81	=81	=81	=81	=81	=81
!	!	!	!	!	!	!	!	!	!	!LO:TX:t=P:problem=zbędny takt
!LO:TX:t=P:problem=zbędny takt cor 1	!	!LO:TX:t=P:problem=zbędny takt cor 1	!LO:TX:t=P:problem=zbędny takt cor 1	!LO:TX:t=P:problem=zbędny takt cor 1	!	!	!LO:TX:t=P:problem=zbędny takt cor 1	!	!LO:TX:t=P:problem=zbędny takt cor 1	!LO:TX:a:t=1
1ryy	.	1ryy	1ryy	1ryy	.	.	0r	.	1ryy	1r
=82	=82	=82	=82	=82	=82	=82	=82	=82	=82	=82
!LO:LB:g=original	!	!	!	!	!	!	!	!	!	!
(16D\LL	.	8d/ 8a/ 8ff#/	8d/ 8a/ 8ff#/	0r	.	.	.	.	4d\	4f#\
16C#/)	.	.	.	.	.	.	.	.	.	.
(16D\	.	8r	8r	.	.	.	.	.	.	.
16C#/JJ)	.	.	.	.	.	.	.	.	.	.
!	!	!	!	!	!	!	!	!	!	!
8D/|	.	(16ff#\LL	(16dd\LL	.	.	.	.	.	8d\L	8f#\L
.	.	16ee\)	16cc#\)	.	.	.	.	.	.	.
8r	.	(16ff#\	(16dd\	.	.	.	.	.	8d\J	8f#\J
.	.	16ee\JJ)	16cc#\JJ)	.	.	.	.	.	.	.
(16D\LL	.	8d/ 8a/ 8ff#/	8d/ 8a/ 8ff#/	.	.	.	.	.	4d\	4f#\
16C#/)	.	.	.	.	.	.	.	.	.	.
(16D\	.	8r	8r	.	.	.	.	.	.	.
16C#/JJ)	.	.	.	.	.	.	.	.	.	.
8D/|	.	16f#/LL	(16a/LL	.	.	.	.	.	8F#/L	8d\L
.	.	16e/	16g/)	.	.	.	.	.	.	.
8r	.	16f#/	(16a/	.	.	.	.	.	8F#/J	8d\J
.	.	16e/JJ	16g/JJ)	.	.	.	.	.	.	.
=83	=83	=83	=83	=83	=83	=83	=83	=83	=83	=83
8C#/|L	.	4d/ 4a/ 4ff#/	4d/ 4a/ 4ff#/	.	.	.	1ryy	.	4F#/	4d\
8AA/|J	.	.	.	.	.	.	.	.	.	.
8D\|L	.	4d/ 4a/ 4ff#/	4d/ 4ff#/ 4ddd/	.	.	.	.	.	4d\	4f#\
8F#\|J	.	.	.	.	.	.	.	.	.	.
8D/|L	.	4d/ 4a/ 4ff#/	4d/ 4ff#/ 4ddd/	.	.	.	.	.	4d\	4f#\
8AA/|J	.	.	.	.	.	.	.	.	.	.
8D\|L	.	4d/ 4a/ 4ff#/	4d/ 4ff#/ 4ddd/	.	.	.	.	.	4d\	4f#\
8F#\|J	.	.	.	.	.	.	.	.	.	.
=84	=84	=84	=84	=84	=84	=84	=84	=84	=84	=84
!	!	!	!	!	!	!	!	!	!LO:LB:g=original	!
2D\	.	2d/ 2a/ 2ff#/	2d/ 2ff#/ 2ddd/	1r	.	.	1r	.	2d\	2f#\
2r	.	2r	2r	.	.	.	.	.	2r	2r
==	==	==	==	==	==	==	==	==	==	==
*-	*-	*-	*-	*-	*-	*-	*-	*-	*-	*-
!!!system-decoration: [(s1,s2)][(s3,s4)][(s5,s6)]s7
!!!RDF**kern: | = vertical stroke
!!!RDF**kern: > = above
!!!RDF**kern: < = below
!!!ENC: Filip Voros
!!!END: 2021-11-14
!!!ENC: Krzysztof Stępień
!!!END: 2021-11-25
